ac1457/mscdissertation_2024/dissertation_results/dissertation_data_analysis/correlation_matrix.csv
,id,member_id,loan_amnt,funded_amnt,funded_amnt_inv,int_rate,installment,annual_inc,dti,delinq_2yrs,fico_range_low,fico_range_high,inq_last_6mths,mths_since_last_delinq,mths_since_last_record,open_acc,pub_rec,revol_bal,revol_util,total_acc,out_prncp,out_prncp_inv,total_pymnt,total_pymnt_inv,total_rec_prncp,total_rec_int,total_rec_late_fee,recoveries,collection_recovery_fee,last_pymnt_amnt,last_fico_range_high,last_fico_range_low,collections_12_mths_ex_med,mths_since_last_major_derog,policy_code,annual_inc_joint,dti_joint,acc_now_delinq,tot_coll_amt,tot_cur_bal,open_acc_6m,open_act_il,open_il_12m,open_il_24m,mths_since_rcnt_il,total_bal_il,il_util,open_rv_12m,open_rv_24m,max_bal_bc,all_util,total_rev_hi_lim,inq_fi,total_cu_tl,inq_last_12m,acc_open_past_24mths,avg_cur_bal,bc_open_to_buy,bc_util,chargeoff_within_12_mths,delinq_amnt,mo_sin_old_il_acct,mo_sin_old_rev_tl_op,mo_sin_rcnt_rev_tl_op,mo_sin_rcnt_tl,mort_acc,mths_since_recent_bc,mths_since_recent_bc_dlq,mths_since_recent_inq,mths_since_recent_revol_delinq,num_accts_ever_120_pd,num_actv_bc_tl,num_actv_rev_tl,num_bc_sats,num_bc_tl,num_il_tl,num_op_rev_tl,num_rev_accts,num_rev_tl_bal_gt_0,num_sats,num_tl_120dpd_2m,num_tl_30dpd,num_tl_90g_dpd_24m,num_tl_op_past_12m,pct_tl_nvr_dlq,percent_bc_gt_75,pub_rec_bankruptcies,tax_liens,tot_hi_cred_lim,total_bal_ex_mort,total_bc_limit,total_il_high_credit_limit,revol_bal_joint,sec_app_fico_range_low,sec_app_fico_range_high,sec_app_inq_last_6mths,sec_app_mort_acc,sec_app_open_acc,sec_app_revol_util,sec_app_open_act_il,sec_app_num_rev_accts,sec_app_chargeoff_within_12_mths,sec_app_collections_12_mths_ex_med,sec_app_mths_since_last_major_derog,deferral_term,hardship_amount,hardship_length,hardship_dpd,orig_projected_additional_accrued_interest,hardship_payoff_balance_amount,hardship_last_payment_amount,settlement_amount,settlement_percentage,settlement_term,text_length,word_count,sentence_count,avg_word_length,sentiment_score,sentiment_confidence,financial_keyword_count,positive_word_count,negative_word_count,sentiment_balance,has_positive_words,has_negative_words,has_financial_terms,target
id,1.0,,0.037435896781205374,0.03743683996811617,0.03756967176786437,-0.06378325553210461,0.025352600999496773,0.03149885525559279,0.04161328390461977,-0.022898291915075714,0.14074759874037757,0.14074493031950197,-0.12919613040669667,0.02159131223751273,0.03889511818730788,-0.0016530040875388753,-0.029030331152818074,-0.01188696182990504,-0.18965726267609972,-0.09263498867138217,0.5559597658481896,0.5559125319578853,-0.416180929688926,-0.4161156767111968,-0.3961490915421317,-0.27586331337739434,-0.02022295047513199,-0.10599591550764771,-0.0945843926343397,-0.16097634851619258,0.1477287588396905,0.1270383002848716,0.015743246648876583,0.02478010989170657,,0.055732174127762886,0.012029748079132587,-0.02358829205254114,0.004881850049306438,0.011593310880773334,-0.04757722135725086,0.12791828656648507,0.33331314007018364,0.1685865260244655,0.14797123107199742,0.14359730025973694,-0.07624211933842577,0.07718678754040113,0.12383216886344774,0.10042826423426567,-0.07462348323414598,0.07627803540944243,0.3343303212214257,0.2660431544333727,0.19635213037184912,0.017832776336051192,0.004175309064511526,0.14484151237551482,-0.19987171651786279,-0.005396567698436982,-0.0024598912058174153,-0.030634287149131263,-0.02800723326738883,0.03697585135124065,0.01441615566212646,-0.10123466241347144,0.0030237121972682183,-0.015102255848647154,0.028617929540440245,0.0032986501496581806,0.007608063369331638,-0.016841706098062983,-0.04717021941481029,0.018244082139034296,-0.12673026588012898,-0.005596282097894838,-0.00832884219811968,-0.10508247266514156,-0.051407092494834924,-0.0005680378412498047,-0.012935915237488943,-0.018355082605362973,-0.007685222116897937,0.01053857908374972,-0.012847189724650947,-0.19329573043857592,0.004724709706374853,-0.024775366916355325,0.0320869300163518,0.03550532657880543,0.09621152228495625,0.06328792551764795,0.0633112096503226,0.0055115595638225694,0.0055115595638225694,0.12867950285921687,0.0708316173838916,0.052355006231675515,-0.025877965750125097,0.07000041174600499,0.04817384476493572,0.0226256580901117,0.03604075766456084,0.011253312616289377,,0.011468511180722365,,-0.0004984072476366947,0.010182061111586533,0.013277053635729967,0.005528426645239954,-0.006705295052064711,-0.007943787907634628,0.037310065233781456,-0.2847988149438612,-0.2790694391343611,-0.23922573714538964,-0.3393368055305104,-0.001556914009603908,0.007410443580202733,-0.2620569555129507,-0.10620990332109996,-0.17122640959680493,0.0991070248916037,-0.11575777956933571,-0.18626577396635374,-0.313789445797374,-0.14366500809792174
member_id,,,,,,,,,,,,,,,,,,,,,,,,,,,,,,,,,,,,,,,,,,,,,,,,,,,,,,,,,,,,,,,,,,,,,,,,,,,,,,,,,,,,,,,,,,,,,,,,,,,,,,,,,,,,,,,,,,,,,,,,,,,,,,,,
loan_amnt,0.037435896781205374,,1.0,0.9999939615668717,0.9999887336466748,0.0912093184132087,0.9452780569073546,0.27361475589728507,0.03900509388555603,-0.008218882719935532,0.11608537833196521,0.11608457803213365,-0.02394524008373395,-0.01095557855390768,0.012630287814661745,0.1870180855154571,-0.06258896638011216,0.3232615878705331,0.09708927893355679,0.20353902508629004,0.46951524561960606,0.46953535574351535,0.6596964468509013,0.6597472395327247,0.5827461424594704,0.5894914165071369,0.07059393843595971,0.12732906447821815,0.12416396388375758,0.3149265581448347,0.09051925654327884,0.0743477928594366,-0.0241438165418603,-0.002249677384897606,,0.12074003970962714,0.017864119192033893,-0.0014732830472818873,-0.01548466160142803,0.3124514735814018,-0.018486209703183935,0.030581857465146238,0.004829290898482665,0.021241348546089035,-0.002445140010174082,0.12411413336314034,-0.06930305701609528,-0.03788347959499349,-0.0246564534584484,0.24058481121956454,-0.0023208283610531514,0.35177019330670517,0.008870790586673474,0.06511171504488078,0.01301008307994143,0.002120553056278941,0.22327490164961233,0.2089694147596607,0.04580181768613636,-0.0021027980977771014,0.007903425871011584,0.12072086252553205,0.16753763323742635,0.05243084401357249,0.028515643252870572,0.21977236835725011,0.03457962716734711,-0.017041737475627334,0.0053240319079608,-0.017077679095360405,-0.05009222447013034,0.19643822560212282,0.15513518362139042,0.21650842666221146,0.19857004341199486,0.08294463886194649,0.16845358262230015,0.16985246557956,0.15411630454320632,0.1874641007260708,0.0011033458965024655,0.0007105031759669635,-0.021984611633592277,-0.02853942186452062,0.08604199030226875,0.016945490831627417,-0.0887696697030615,-0.0027943255688962034,0.33684702100723923,0.2768978039799427,0.3658860835579964,0.21054762520092693,0.1180114814201804,0.05035026010413142,0.05035026010413142,0.04664692421231429,0.08042287475852665,0.08013731282138968,-0.0008966107111155366,0.04689750647127178,0.07358205543753156,0.004950807142572976,0.002029228858527967,0.013866790220254938,,0.05315974057432065,,0.00566437360916467,0.04672572460133833,0.06310206929197815,0.03796780563363006,0.09762165935849297,-0.003676019648444759,0.025333563033912522,-0.004932922293552388,-0.005694882062846697,-0.0024434279727238014,-0.012105063725285069,0.0021737256109684673,-0.00236247811120408,-0.0008192170100759707,-0.004995958043257599,0.014596148555516043,-0.016715603586806023,-0.004367696196845207,0.014800955486600697,-0.0057465275626792335,0.032091911234408396
funded_amnt,0.03743683996811617,,0.9999939615668717,1.0,0.9999947671049753,0.09122249484190971,0.9452836238824874,0.27361786802096066,0.039003706949507916,-0.008214856154908554,0.11608295612368234,0.11608215597597155,-0.023937949949481112,-0.010973854646102146,0.012629962874145284,0.187021355997779,-0.06258533412970387,0.3232614764115856,0.09708426845419785,0.2035270601902428,0.46952030031217273,0.4695404095581451,0.6596983251853676,0.6597491133618271,0.5827465096801726,0.5894965990095712,0.07059531725534074,0.1273311980224127,0.12416603053636725,0.31493226286014697,0.09051053404740507,0.07434128284516216,-0.02414243797872657,-0.002263817881944957,,0.12074056059722002,0.017881639331764808,-0.0014725967392271182,-0.015483535920233065,0.31245759116595523,-0.018474394316726036,0.030588764366588077,0.004821335843502333,0.021244437002812918,-0.002441892695690637,0.12412313114339227,-0.06929134960781128,-0.03788178979179053,-0.024653916340252748,0.2405803644701101,-0.0023225450075095564,0.35177240467811544,0.008876358982667244,0.065111370754297,0.013013816718877655,0.0021259102333639215,0.22327945724016543,0.20897415485927745,0.04579729931682691,-0.002101881124300405,0.007903631040989382,0.12072375187138083,0.1675311699361584,0.052433389379164676,0.02851351080444651,0.2197462502007306,0.03458474759490359,-0.017041181956237255,0.005313778287597473,-0.017076901538078344,-0.05009635240525049,0.19644623579291895,0.1551438485400625,0.2165075277315733,0.1985453921207498,0.08295437738903771,0.16845413513228605,0.1698328582698424,0.1541250354594965,0.18746729920044128,0.0011036350306054083,0.0007110488972756918,-0.02198268625964258,-0.028538986762411955,0.08603803046163368,0.016937995255163926,-0.0887656483328621,-0.002793111491443372,0.3368461592235644,0.2769049748282127,0.3658903332005841,0.2105574869850558,0.1180120833498221,0.05035025572820011,0.05035025572820011,0.04664827438944766,0.08042359625651027,0.08013785255121186,-0.0008968388419916706,0.046898224007554966,0.07358255399609495,0.004951040872682652,0.00202960721758361,0.01386689441457549,,0.053159937698490284,,0.00566433254123174,0.04672589451870325,0.0631022306787407,0.037968035105637385,0.09762198654460902,-0.003675479185317856,0.025333413752652835,-0.004931128434267895,-0.005693124580971827,-0.0024419234800211803,-0.012102913945117335,0.0021610099219283242,-0.002352618653057787,-0.0008175633615952518,-0.0049952907857132274,0.014597226700656125,-0.016716228509810416,-0.004366969333844804,0.014802129978617861,-0.005744541962616939,0.03209623889131317
funded_amnt_inv,0.03756967176786437,,0.9999887336466748,0.9999947671049753,1.0,0.09122406330052481,0.9452114945860239,0.27363539749215804,0.03897348690133232,-0.008264438169533457,0.11617874345711064,0.11617794486380414,-0.023961985645522703,-0.010957412801613628,0.012647510879636562,0.18699668337952347,-0.06259090785472175,0.3232256151592318,0.0970182480719667,0.20349819503057087,0.46970224943166616,0.4697254170376172,0.6595570557775228,0.6596159965191685,0.582611919538671,0.5894060546955314,0.07056083407799693,0.12728621923351624,0.12411949203934733,0.31488884416890695,0.0905605033040166,0.0743830018163041,-0.024151914651683825,-0.0022451417965580183,,0.1207856285642901,0.017888330517743016,-0.0015055296535688943,-0.015493668006031275,0.3124679668230735,-0.018477773608046203,0.030590276331360498,0.004865146919742172,0.021268259987508854,-0.0024227023147410376,0.1241455784705348,-0.06929156668520382,-0.03787552634208499,-0.02464799360101673,0.2406186608993929,-0.0023353289908976875,0.3517715319915201,0.008930534961381999,0.0651598990308766,0.013031045131975989,0.00211605616046124,0.22330599885886418,0.2090182649201544,0.045735089889802134,-0.002112423365990756,0.007905371266514846,0.12071827853329901,0.16752996239377949,0.05243578851815769,0.028514904692840664,0.21974176445807866,0.03458878680347538,-0.01702840940990858,0.00531773080306267,-0.0170674056720321,-0.050109076250506035,0.19642128549514992,0.15509563454257055,0.21650364677715228,0.1985181717418031,0.08294487397648691,0.16843119241869384,0.1698000995307435,0.1540767130111886,0.18744352963162106,0.0010728118210409328,0.0006801702594555531,-0.02203049723763378,-0.02853812190250702,0.08605505112845344,0.01688498381983442,-0.08876973789705192,-0.0027972049832659944,0.3368616842406888,0.2768951633355764,0.36591553255478904,0.2105602595354104,0.11805376548713417,0.0503757888510529,0.0503757888510529,0.04668037511062431,0.08046563657421732,0.08017741095863135,-0.0009086414676080639,0.046926108336525836,0.07361944133899022,0.00496136681159633,0.0020399363169006676,0.013864215812025621,,0.05316786942855404,,0.005661227480119318,0.046727479122614,0.06310214240140849,0.037985813953820315,0.09760102283176612,-0.0036875820360727286,0.025337024850327194,-0.005057666847650101,-0.0058184221014104835,-0.0025496274969832896,-0.012226975025606136,0.0021867161757954828,-0.002349059215131317,-0.0009273696816370541,-0.00504689296409927,0.014518705393339534,-0.016672484065740196,-0.004425717884920583,0.014719288816144455,-0.005864776401840365,0.032051131147357935
int_rate,-0.06378325553210461,,0.0912093184132087,0.09122249484190971,0.09122406330052481,1.0,0.11898460677218926,-0.06967703817518135,0.12675434307721833,0.05378161356305741,-0.40699677599455425,-0.4069927094157359,0.1960862367854847,-0.016363951679670332,-0.015571921414532387,-0.011442972767020247,0.044601108509391085,-0.02911512029696609,0.2542273142707889,-0.04088831370073028,0.008873778030955477,0.008895912060783715,0.09573730344310775,0.0957404465330623,-0.03133937637668312,0.40874450494991005,0.06708650382863816,0.1474893839755414,0.13996952539227014,0.07951258382596549,-0.34657113651687677,-0.26768869164013426,0.01997961441309217,-0.014698135221639189,,-0.03299802301540668,0.05770040444890956,0.01691041778123378,0.008487811200134227,-0.08454390214323997,0.1175576428452603,0.01946138570794829,0.10799361500906643,0.11958657876122811,-0.08139949599321508,0.017384915197296607,0.11084085903209896,0.09699812446068173,0.09875409607002282,-0.04041930051627067,0.2398775901732252,-0.18812324523833826,0.09290752647262349,-0.0027111953055602646,0.12483915243123238,0.17446537583574112,-0.08251554281460631,-0.29426600604414643,0.2724077651520152,0.018952071209651228,0.008720954652673685,-0.06210313462091861,-0.1310784676382318,-0.09401642658747465,-0.11417165076890065,-0.09040718539988828,-0.07505983643770159,-0.001315590052470165,-0.12908972746608907,-0.003468478206774292,0.050299935594673856,0.027542459559210367,0.08482769564327082,-0.055040473724782,-0.08041211336927902,0.017608176572111327,-0.01314796308089174,-0.05487667312463654,0.0849069641673245,-0.011860031127216656,0.009180826472356966,0.013317099978646217,0.032452505911982704,0.18314926629764286,-0.07535756538049475,0.26955959360294557,0.04960541781371932,0.01080147691554384,-0.12137933133984583,0.005294350120411874,-0.2290368952138146,-0.002711691790652586,0.0052354696561004565,-0.10023566333451953,-0.10023566333451953,0.034769709984608335,-0.01805104086592372,-0.004748689580023417,0.06331989135151078,0.009177322459806476,-0.011120143420069764,0.018174075354973333,0.02284858967462415,-0.013959925974619609,,0.05021352964003024,,0.0037499631615684342,0.04093029841306452,0.023037662374257292,0.01961663019391631,0.0497251940341267,0.02232133158898209,0.004783317208256253,0.025933514731500396,0.02557951570228199,0.020461075795166296,0.03349889993956259,0.0009152314629207241,-0.00319981362655868,0.021391176641985563,0.0071436325990909405,0.02031898090885911,-0.014973575535270019,0.0071522304489401905,0.02199806522375258,0.02772924513526742,0.21203112927270382
installment,0.025352600999496773,,0.9452780569073546,0.9452836238824874,0.9452114945860239,0.11898460677218926,1.0,0.26409534995668077,0.038794440432567925,0.004765638201126691,0.05920846273544635,0.05920753563837125,0.00205744047665889,-0.016075167390740008,0.006864875829190125,0.17460567804968963,-0.05192508496641011,0.3089231896524071,0.119150179245773,0.1807119471044892,0.38344919353757495,0.38344203541508226,0.6581940686692064,0.6582065887301571,0.6021246117433229,0.523879138662806,0.07998231672185421,0.1263319006518332,0.12257794191898926,0.30465389598425074,0.05905948666865888,0.05060046994443317,-0.019592576855284843,-0.0059223559434188715,,0.10596583190054511,0.023273507708873122,0.00017168434680751577,-0.01114436380374219,0.28015996319103387,-0.006160775766108804,0.027555547996986954,0.013812990349617854,0.02747382321180372,-0.004124454141832155,0.1156159412880033,-0.0642375084967443,-0.01954364407585037,-0.003972618064861581,0.22894978016902118,0.019434749333882236,0.3185019947298501,0.01764871736220683,0.05440970256662491,0.026220588873007652,0.019837367287329176,0.19643303142720558,0.17150059915355487,0.07151330429491014,0.0015037684122795828,0.007495065310489543,0.09668442687856714,0.142409509310929,0.03376834035418327,0.014509641861881051,0.18538540132951556,0.0164635255270023,-0.01688605029807583,-0.008114749198223248,-0.018538080971726885,-0.03919932794086013,0.1982948018532489,0.16049426790123494,0.2081807922054961,0.18867720344768327,0.06587608516284862,0.16305940656952014,0.15934625790793366,0.1595120083472835,0.17497785271672384,0.001559372555075315,0.0023974485039657714,-0.014858175849477762,-0.00748028300803942,0.0660398864245571,0.03982931340588486,-0.08058599359553682,0.0030682496871841554,0.3012556231218659,0.2594985695632741,0.32991782323249685,0.19349556881682392,0.1050542832127561,0.029574984207029514,0.029574984207029514,0.039287217466615586,0.06305063096973286,0.06882358939978687,0.007233923971687605,0.037743318496983744,0.063847854653109,0.005588803828650672,0.003686130792395817,0.009116836148373367,,0.056931169788897305,,0.006068169562873606,0.05112689025115782,0.0640067884512681,0.03990955740519568,0.09396085533023327,-0.0009952442678698578,0.0226228037132048,0.007765859070261604,0.006800045562348633,0.008184268102921622,0.002525874279502525,-0.0007453554586486611,-0.002964213951595981,0.01144143923803752,-0.0004361901529602577,0.022553329022860145,-0.021542513913266132,0.0006314177518724079,0.023355279296019903,0.00837022283189803,0.038687272169575626
annual_inc,0.03149885525559279,,0.27361475589728507,0.27361786802096066,0.27363539749215804,-0.06967703817518135,0.26409534995668077,1.0,-0.11767340733331949,0.03717920836110788,0.05655250251062642,0.05655199830074515,0.02832917008709897,-0.0225041498496812,-0.016871581385494928,0.1257057959493875,-0.010193494324998801,0.25763504127389586,0.03414637107790359,0.1525883380777421,0.11565690545357478,0.11566771800743536,0.19154696070623542,0.19158040488643438,0.18965573118601994,0.11363491630548461,0.02324738136908214,0.015745158535221508,0.015553348004323635,0.10445212961981686,0.05195675523721791,0.04815918877042321,-0.005872811872679475,-0.009546672994713202,,0.07252073657398093,-0.017854893995955672,0.011804379278395416,-0.00127281751977168,0.3530262702711223,0.025458597366764726,0.05930111087019385,0.06919411646723538,0.0873882912818734,-0.04694831510820471,0.15927737356414387,-0.034208550610476306,-0.0026460264092672938,-0.003351721070031935,0.17391703382476992,0.006637452978318004,0.26371675508785786,0.058386243982277417,0.04175090258647231,0.0586378465819338,0.056137741592146115,0.2715695793034386,0.14104387451065645,0.000620733975406369,0.0057122913882225205,0.0062534771545469285,0.09902493896565054,0.12274355411408597,0.03634784582891776,-0.028511818406275775,0.18336807828059729,0.02179465189837461,-0.012872164231373443,-0.03061162261979409,-0.009905775553918738,0.01405197708899251,0.10086596724965839,0.07426476999230815,0.11648524322114329,0.11771945047901661,0.09147407973411555,0.07682643638462992,0.09278579834451364,0.07311750463189672,0.1256410115408699,0.0014090274057019557,0.013382769074205722,0.0037088688500550807,0.04661280184035943,-0.014292718715441926,-0.008667504989805385,-0.04333303538460051,0.023583687669967417,0.3659742139581585,0.2838692945363652,0.24114329919583555,0.24138468329584237,0.029470157558633487,0.012395163478993929,0.012395163478993929,-0.03187842187332531,-0.0029140325010771646,0.002784747875352368,0.0068362541463738435,-0.012876089440749514,0.00445424495010906,-0.00703875965245975,-0.012961479650521635,0.0021667566074641174,,0.006328800271190389,,-0.0011735899788729801,0.0038102400905837166,0.013020923541039323,0.005306637325563594,0.01909138029122403,-0.006586020933531339,0.006413668407264059,-0.009910922281454173,-0.01079595810655631,-0.008669467808222576,-0.009427999020588464,0.001548471120181497,0.000920507090832867,-0.010637354102701039,-0.006871509474065119,-0.001156637781999411,-0.002951733973958187,-0.006844765406445787,-0.0005325264831069376,-0.01079365956074933,-0.0311398060449435
dti,0.04161328390461977,,0.03900509388555603,0.039003706949507916,0.03897348690133232,0.12675434307721833,0.038794440432567925,-0.11767340733331949,1.0,-0.015120058898802179,-0.022139399760013407,-0.022143117388439538,-0.0018367616887802422,0.003448248629894747,0.023052854082471697,0.18253510707729192,-0.029692039344908223,0.09851749126392556,0.11458971618421576,0.1459439230482315,0.06076499885958688,0.06076185907102252,-0.0049165730488178495,-0.004948920557031669,-0.027516339271845373,0.06210911587527452,0.004188484249941543,0.018407153811786828,0.01902284160883987,-0.01562894566134057,-0.034655014359548764,-0.020942629888993272,-0.008971754308649427,0.010972292076446271,,0.013861833252844024,0.18006592110610112,-0.0008000081104911535,0.004330018070706357,0.0210725137004545,0.014923684050965925,0.13728565726886527,0.09325263724380896,0.13464893232128827,-0.11690516355435102,0.14237477452664352,-0.019269904547831385,-0.005219373005111706,0.011655762865682647,0.06144260348261666,0.1135442180114595,0.06292716692707544,0.0587890010831373,0.0790637551614451,0.031267985488724906,0.08633015201063914,-0.05447433899475165,-0.03630710731870574,0.11639133117003901,-0.005854634276173274,-0.007133540639797041,0.03592068004612562,0.03816388670258152,-0.005762871043284995,-0.05207479542416345,-0.012039624659398406,0.0026213760810274945,0.0015962178903964903,0.002886169419643521,0.0002202302945350438,-0.03012197726625529,0.10851180251597824,0.1586877148952386,0.07018324731025585,0.04816377258924415,0.145656079259869,0.11710850873046885,0.08858282147547572,0.1612553170929667,0.18251935949446754,-0.002380304684235603,0.0013421712204428017,-0.011988559582226973,0.04461571081606125,0.06635189373273555,0.10376339064941928,-0.016589417717870696,-0.021703252432366035,0.031272520352872216,0.1864160941526659,0.03499337778723825,0.2136928548733623,0.10509184475748586,0.008068597153075932,0.008068597153075932,0.11574480418735368,0.083392508345808,0.07056762627759736,-0.014003704634673472,0.08311225922786479,0.0498008174818562,0.01612866166397469,0.037418348192990884,0.032161728830488484,,0.00917635213189165,,0.003024957715767611,0.003590434942329538,-0.00012685886130422543,-0.002316572153912594,0.008322783544870855,0.006955814069748579,0.0016633687930271489,-0.01782643994776355,-0.01714499981933807,-0.014850363382937467,-0.023695508068472756,-0.0053493526511372335,-0.00040221080734701434,-0.01234340495685049,-0.008341246622575113,-0.006003011616187378,0.0007574468117556299,-0.008731508361238835,-0.009120098388000899,-0.01791314359885335,0.036566358071436385
delinq_2yrs,-0.022898291915075714,,-0.008218882719935532,-0.008214856154908554,-0.008264438169533457,0.05378161356305741,0.004765638201126691,0.03717920836110788,-0.015120058898802179,1.0,-0.1759474562665268,-0.17594446898887825,0.026135531572379037,-0.4747567501120079,-0.029488150416514144,0.04744908121337811,-0.01804046388463761,-0.025018359501233246,0.0008384522779882787,0.11689540607760286,-0.031767983605187844,-0.03178332803261184,0.015539237713026812,0.015506852781496211,0.007215192973011505,0.029649231073101853,0.03813128704187997,0.018021297576370148,0.018817528563351088,-0.006912814151954561,-0.09621184560580431,-0.05609416752154278,0.05915068858583654,-0.34818532492268583,,0.010263075386069171,-0.007387157157417175,0.10807710445305993,0.0022607175653800455,0.05944520402339437,-0.0009475674561489373,0.03830088403382237,-0.015576511113604304,-0.024774429161962052,0.011507325366034642,0.033928315809896505,-0.013123181886877715,-0.016207925894464365,-0.03601913626125862,-0.030129609089687436,0.013875298852869554,-0.046830843503177635,0.003759770623892502,0.008262453613986752,0.01638087180564643,-0.05254467478631388,0.047096672104051475,-0.055160228081479024,0.0007660595027624081,0.14613328919783436,0.0347174798869474,0.08108559576404892,0.08330039542922507,0.027962255344850185,0.019066991240195456,0.07694432261029961,0.049499825211253776,-0.32959857141035215,-0.024206855761381714,-0.38143762783163926,0.22561544439864428,-0.039224833390689634,-0.0009019211196954519,-0.030342550463225506,0.037025820707625175,0.07596602628458572,0.010588826238903922,0.08191788437025119,-0.004385779383589949,0.045324672107065214,0.0403091509328388,0.08751222787367582,0.6619034749366888,-0.025037119765117622,-0.44745774745513955,-0.006157598392081998,-0.05090771560096425,0.013218671998829687,0.05996296438613729,0.030969584186072922,-0.07160184604894283,0.0590819285716247,-0.011334425953177418,-0.022749837913454658,-0.022749837913454658,-0.004375727592465952,0.003403130119641813,-0.005055529590692731,0.0031513785013003296,-0.005775835079507211,0.003730214364054331,0.001100445058886417,0.003547291346045467,-0.017731567385319225,,0.0028939225727986667,,-0.003164083777718886,0.0038657461795775787,0.00423771293121293,0.005571732505522485,0.003129832470347738,0.008398069164506566,-0.0007450736288830629,-0.01521103419401327,-0.015084138489522714,-0.0138704416468901,-0.014075640610368822,0.002669400199246898,-0.004892968654610242,-0.01407411438694299,-0.009071817538303587,-0.009368587017061962,0.0035039930036664764,-0.009827453965783028,-0.00958110873659308,-0.01357807129715791,0.021271061098449683
fico_range_low,0.14074759874037757,,0.11608537833196521,0.11608295612368234,0.11617874345711064,-0.40699677599455425,0.05920846273544635,0.05655250251062642,-0.022139399760013407,-0.1759474562665268,1.0,0.9999998948801355,-0.10015590942344149,0.017916819483048265,0.08308876330656302,0.024398786767368126,-0.17269437164249943,0.013589940165823856,-0.47487041878611436,0.015053316977497877,0.1343037071206474,0.13432933149013937,0.010523367107790055,0.01058944551067366,0.0546509529692696,-0.11311202686395481,-0.03444006405338697,-0.06193098889873151,-0.05894420349984246,0.03723869903152316,0.40046311461232503,0.2917315670075916,-0.0758079646561844,0.027891430398609172,,0.05296252385617544,-0.01776206899865316,-0.03793331718906401,-0.06742608499145411,0.1214803807328922,-0.054451189779488596,0.014652642452608139,0.04149694584180411,0.017397029547683625,0.0013194551518720776,0.030833272983473766,-0.09871974296536333,-0.08374468097469483,-0.09241785008979937,0.04335163740958182,-0.36136279392420123,0.2996486631847327,-0.011057959770605844,0.038820278601235825,-0.06417366897074528,-0.10297479914708789,0.1125512640375979,0.5075588579578658,-0.4917296471220491,-0.05423195861062542,-0.00610639971912087,0.0134118490238779,0.12586115935988837,0.10692463215825387,0.07136759935656037,0.0904857082768073,0.07709038972870262,-0.015358215543354252,0.06368988902101344,-0.009373901242234873,-0.19688912350526258,-0.11714342459546563,-0.19271008631990866,0.058121448442519014,0.049013254195739056,-0.016996934690919386,0.010244120665058334,0.016975524115641766,-0.19146241820586526,0.028271327965046514,-0.014045979480079723,-0.03113993585624483,-0.10600232351168028,-0.09381017698511059,0.3033718140997241,-0.41797725874927766,-0.19394597242143055,-0.05183517549527847,0.18735282165707176,0.026364174449448118,0.35446991533330546,0.06898708234410394,0.03651818276305602,0.1249341816236265,0.1249341816236265,0.0466204003770676,0.0472277377164327,0.035338747643645654,-0.09282623701035882,0.03957992131776519,0.036403793465972854,0.005946788629949371,0.001368780511492832,-3.1550972345214234e-05,,-0.0067994092525867425,,-0.0010347125990352824,-0.005043037549805684,0.0014449393994662245,-0.005076228327804387,-0.0038068400351955467,-0.016807915011132546,0.004343585194622902,-0.008564714608804855,-0.00898426144523222,-0.005612379573710467,-0.011925082608750736,0.005092136509283976,0.0014511984322167347,-0.013854914518824145,-0.0008935549535193192,-0.012470528952610097,0.01124390417089291,0.00014275398847563237,-0.013514477372940288,-0.016370038054076105,-0.12374080067481821
fico_range_high,0.14074493031950197,,0.11608457803213365,0.11608215597597155,0.11617794486380414,-0.4069927094157359,0.05920753563837125,0.05655199830074515,-0.022143117388439538,-0.17594446898887825,0.9999998948801355,1.0,-0.10015621951326485,0.017915830372458433,0.08308637344733753,0.024397193906454298,-0.172691233973237,0.013585035615089409,-0.47486905278451647,0.0150527246567392,0.13430409759394712,0.1343297226148937,0.010522298566055308,0.010588377892282529,0.05464922215963165,-0.11311076425380429,-0.0344398552610832,-0.06193039892705002,-0.05894366470881481,0.03723719731373757,0.4004616735099198,0.29173016431204885,-0.07580645381959977,0.027890584819784504,,0.05296663357964665,-0.017764169893281355,-0.0379325604105052,-0.06742467967581131,0.12148019031034166,-0.0544540379677237,0.014649584904647872,0.04149392169260521,0.017392352507127437,0.0013244691906653177,0.030829799320433775,-0.09871974933568989,-0.08374728257793994,-0.09241983551585183,0.043346751870019,-0.3613649587202268,0.2996477101271409,-0.011059849296857886,0.03881997908043636,-0.06417479374713167,-0.10297799189083319,0.11255206600972958,0.5075632206571454,-0.4917276911713131,-0.05423083683381319,-0.006106337709747966,0.013412754619593808,0.12586830536148555,0.10692806023338618,0.07137115947743848,0.09048913959005342,0.07709082298095245,-0.015357796753586605,0.0636886463371377,-0.009373752951322367,-0.19688555217832554,-0.11714490430557241,-0.19271106176550795,0.058120373410147884,0.04901372018402924,-0.016999853515068553,0.010243503484879525,0.01697627953930217,-0.19146351579509335,0.028269606543079934,-0.014045721193748504,-0.031139303894410417,-0.10600021105270299,-0.09381354438861644,0.3033668760748741,-0.41797240073033776,-0.19394241030108864,-0.051834312638640065,0.18735387468986367,0.02635879527837275,0.35446992542025535,0.06898350436924958,0.03652034247195088,0.12493680272337361,0.12493680272337361,0.04661932470261,0.04723194220976829,0.035341484218563333,-0.09282649783281909,0.03957956912589903,0.036407140977043936,0.005946457629805774,0.0013685028676081589,-2.971634793891088e-05,,-0.006799326624167901,,-0.0010346556196401831,-0.005042991938512819,0.001444785919826038,-0.005076217470648201,-0.003806937231945063,-0.016807725918791424,0.004343539073420843,-0.008565559817876434,-0.008985070910496488,-0.00561313762471383,-0.011926042926689634,0.0050908508807216936,0.0014520793120477219,-0.01385550840317177,-0.0008939403729109167,-0.012470811010351995,0.011243943586702485,0.00014229920986291622,-0.013514786687476195,-0.016370758819465356,-0.12373776869514938
inq_last_6mths,-0.12919613040669667,,-0.02394524008373395,-0.023937949949481112,-0.023961985645522703,0.1960862367854847,0.00205744047665889,0.02832917008709897,-0.0018367616887802422,0.026135531572379037,-0.10015590942344149,-0.10015621951326485,1.0,0.01626003752225114,-0.04298223452412571,0.14484077628550915,0.06076100370212521,-0.008896643823725292,-0.07935769202664085,0.15841548725811813,-0.09055488343238813,-0.09055516893340647,0.029501323193050065,0.02948724076962817,0.013650370775440006,0.05178140817787376,0.013029488223912972,0.0512657209107995,0.0482224192374203,0.03948793121697387,-0.1253378146531651,-0.09652989734518923,0.01441788419039928,-0.01412890600077593,,-0.009706342876105578,0.0039797810733905,0.00011887384636805101,0.01911767923221248,0.03182151764514295,0.3105901238701692,0.014916708412751766,0.07232487101067882,0.08292168549064104,-0.08347074204031063,0.028733112561666246,0.06562241702453589,0.22317226619676403,0.19081194180299538,-0.044546366046428434,-0.02101530713809204,0.021367811141004295,0.11072939246476571,0.001107621942559908,0.3157425273698971,0.27912111527748035,-0.02028973303913149,0.01617616266969012,-0.0679662801203963,0.01421007426023693,0.004368074894262176,0.010572200155427274,-0.008479886785998326,-0.188069714674798,-0.22808624225796628,0.04687609912640966,-0.12920140014191608,0.02062965265063976,-0.518464531174472,0.021980597241058185,0.052134755596766405,0.07619782410296747,0.12294245048194126,0.1273651928804761,0.14284097756516945,0.06846023817821602,0.14508964167890254,0.16066910714723906,0.10481947541938251,0.14179520559715234,0.00298672533333489,-0.003971337580570693,0.03317613807670553,0.32858020749945016,-0.02746141069766909,-0.06128734053002483,0.08103486199918895,0.007325960616236924,0.033268318388699404,0.03828796151945117,-0.001741040608414705,0.04352207605154208,-0.014067756481421567,-0.021389821083826067,-0.021389821083826067,0.024210213855223033,-0.013816357879001095,-0.002312233794147856,-0.0024949026951808085,-0.011854590464412292,0.00022245291954058318,-0.006599017359748478,-0.007102391843968216,-0.007301099885709105,,-4.74960145313728e-05,,-0.0005090498337813944,-0.003712167812248721,-0.003725870633302641,0.002491523911633385,0.0038937873614204636,0.006782287072355032,-0.01225494727143738,0.052514997268176704,0.051337190606635774,0.04527801877174534,0.061163758383311485,0.001202777241613279,-0.0022492972325392716,0.04430808284968123,0.023262977802321012,0.028583341792147398,-0.013288455983199532,0.02643281033982099,0.031874025384379626,0.05262664930215117,0.08892651055529283
mths_since_last_delinq,0.02159131223751273,,-0.01095557855390768,-0.010973854646102146,-0.010957412801613628,-0.016363951679670332,-0.016075167390740008,-0.0225041498496812,0.003448248629894747,-0.4747567501120079,0.017916819483048265,0.017915830372458433,0.01626003752225114,1.0,-0.03217795935693469,-0.016903337712589252,0.05182735933570179,-0.013318359450890192,0.006288795359845991,-0.008985946942275698,0.013256170052131422,0.013251996634269677,-0.024115510734884413,-0.024103194388519992,-0.019131253578021843,-0.027003358877170366,-0.02452189952792998,-0.008827394157394718,-0.00894651299591059,0.005443865180107621,0.031672139707078543,0.01866925185136601,-0.022845245824126188,0.493685449187805,,-0.009501157684742498,0.004121263722209783,-0.12356650806454923,0.02780588193835216,-0.03978739401176954,0.03517177870170152,-0.002771580082443184,0.03802972763746586,0.04339927419099637,-0.010845896752849391,0.005692821910282267,0.032814935577760926,0.04369951368291508,0.055472217981375777,-0.005398352495248158,0.020072519978664508,-0.017309522383445138,0.01683593348350822,0.007934821783947858,0.01934743918872778,0.08812519997268412,-0.03569465219384884,-0.014941724115740355,0.01017065163919321,-0.08923608556968671,-0.027647894905520495,0.016241374277553296,-0.018170446851101862,-0.048479665389124106,-0.04776877537871947,-0.02693700529174616,-0.05407732507100104,0.5063724860839444,-0.013503142668070506,0.6708630937939409,0.041731127013554845,0.0164154756569908,0.011756829365551356,0.008589232991177712,0.00611205490240077,0.008934584880613794,-0.005982262983355377,-0.014325466723082245,0.011401285253648322,-0.01621070433870443,-0.052685325080569556,-0.10064610090114562,-0.2026697943114315,0.0730633631031407,0.07745219934187739,0.007899537019827365,0.0605204395410098,0.00967344987846023,-0.04801949922033308,-0.010168949660239053,-0.01535559661235804,-0.017314934659138467,0.002360765265173513,0.005100427215185754,0.005100427215185754,-0.004985554356970375,-0.0014969330526224396,0.004764054189303246,-0.0014263259279587276,0.003963271994862729,-0.00021110225384362625,-0.0010419609173871246,-0.0029102600525315863,0.027268055274670047,,-0.005609996861135866,,0.0001515100353717857,-0.006663487104115227,-0.00769528838132801,-0.005954102059912627,0.0005900713475137555,-0.002437325236055112,0.0024048220014340756,0.0033523281755333495,0.00338706254574101,0.003539626689071534,0.0010429498358808414,-0.0012619372479933952,-0.002125388458847286,0.004848479261836885,0.0018214327233291633,-0.0007491087390338765,0.0017787863582010117,0.001434848069172937,-0.0015986584379866849,0.0027525130924524544,-0.00881166452806488
mths_since_last_record,0.03889511818730788,,0.012630287814661745,0.012629962874145284,0.012647510879636562,-0.015571921414532387,0.006864875829190125,-0.016871581385494928,0.023052854082471697,-0.029488150416514144,0.08308876330656302,0.08308637344733753,-0.04298223452412571,-0.03217795935693469,1.0,0.012723715101425566,-0.2133724260431027,0.00821697299332375,0.013096813560205004,-0.0586004995990163,0.047562578104964705,0.04755963076701825,-0.028434960491705415,-0.028418140115555362,-0.02544008990283504,-0.02379092276162504,-0.012871179851590128,-0.007471200161278401,-0.007506957272787565,-0.0012975680467518218,0.04014952473789652,0.028054149928905987,-0.015347516560317406,-0.005584388171402221,,0.0019441556949814714,0.010159887836946331,-0.006613742579462185,-0.019251996858175933,0.005877320586563365,-0.02627938708606895,0.006170176043001842,0.003689905534947872,0.009420991705817065,-0.00811536726435729,0.004380064729842773,-0.01836127277907916,-0.0361295960489147,-0.03945143467294045,0.008559557375301358,-0.012061255894141445,0.0182606293090253,-0.007328840305854315,0.010598733602408544,-0.025085426939650112,-0.03898069288341157,-0.0019679846326588805,0.016838257220839307,0.015431788816568152,-0.013282108860006718,-0.0008780320634003739,-0.028521873281493453,-0.05504479996122184,0.01719389331928389,0.015219616913765438,-0.042209267079803,0.013464449560435356,-0.032636642468799985,0.021766525228916405,-0.03981151013469033,-0.06176796176416234,0.009365332856689883,0.012628962396959464,0.0015345629266226301,-0.0680307623174706,-0.011185496873458278,0.016306954373271898,-0.06519742658837233,0.01631833124966802,0.016729560646272415,-0.0004550889123478892,-0.003093744618753671,-0.0313440562093309,-0.0427860729681957,0.08204704876856368,0.025003195832479036,0.10622027439975798,-0.2726888196942895,0.00549924460850117,0.0017750637603907247,0.020537640882635235,0.000665428954553458,0.006237186519329861,0.007768917086918941,0.007768917086918941,0.014136825106952869,-0.0017785073051928288,0.013284103791446825,-0.007145695278738782,0.008633724662194357,0.0016567616868908444,0.0019273006744829832,0.003266709339533631,0.0008161037350098879,,0.001760936778391261,,0.0006222389802380019,0.003733824887130034,0.004294512253925952,-0.0010324482313181563,0.0003325063760377492,-0.002728030051846885,-0.0016709584144099202,0.022081674607121297,0.021450984641754496,0.017951978746600056,0.026164021745034582,0.0008896990842545067,0.004719705662873429,0.020783025045437522,0.004594743350552248,0.010894041905891473,-0.007578141881973528,0.005821611747812534,0.011077786401767776,0.024346523520489823,-0.00978808373283292
open_acc,-0.0016530040875388753,,0.1870180855154571,0.187021355997779,0.18699668337952347,-0.011442972767020247,0.17460567804968963,0.1257057959493875,0.18253510707729192,0.04744908121337811,0.024398786767368126,0.024397193906454298,0.14484077628550915,-0.016903337712589252,0.012723715101425566,1.0,-0.01861902382601394,0.23968669270100215,-0.13504321229962407,0.7202787410218169,0.06614060993104824,0.06613976258769691,0.1363960292614729,0.1363914822268096,0.12298387555774415,0.11217691976321253,0.00286636502297319,0.033199305808036865,0.03393985282433605,0.06887519813734636,0.0010650734829608603,0.012553668988866706,0.0087301647975724,0.00825629375447836,,0.042203379347661545,0.05774238938276662,0.01432701793400985,0.01082497552432237,0.2577788899751231,0.2320816093064021,0.4192958692579261,0.13518429742146088,0.20218184937203634,-0.12309915151541667,0.27765643426104364,0.09092422500389426,0.289784248602124,0.37396309725079907,0.07536318662315247,-0.002888590498917133,0.4201691131598577,0.09211230138008446,0.08895306426975728,0.14565833973360684,0.4941667617796734,-0.10398266895486355,0.312449646848554,-0.09755395591281082,0.006095888835006116,0.0028005341142539482,0.14388182317905338,0.14828699364245268,-0.23765040554200154,-0.23378388039883385,0.13470492580874074,-0.20776800240186896,-0.003168531921984852,-0.08551322057853718,-0.023215271326207754,0.03180080416639646,0.5557794237723027,0.6683596822911918,0.6390656753682771,0.5424596775749602,0.39774811135652094,0.836220704578915,0.671738650480362,0.6705616648246208,0.9989808504430929,0.00676218251468643,0.013828134060523526,0.012239150491683731,0.37140450342536074,0.10825878019154672,-0.08736839777194345,-0.017043037031742786,-0.008519485311839471,0.2980209813253257,0.3996647286804055,0.3725037433554619,0.3612162357185101,0.05542580887710034,0.009812868856864186,0.009812868856864186,-0.00023997983560166395,0.018075579305362965,0.07197521463411924,-0.02582852762977225,0.018222891062989424,0.05799908487241634,-0.0009917060927093718,-0.0028045062406082464,0.0025163913932677784,,0.0074274466436475796,,-0.0017119935972922326,0.004400071875224135,0.007075027433597045,0.0011922699653049468,0.02279805548972408,0.007184438601828903,0.007869179180475087,-0.014394532712031113,-0.014098482589622093,-0.013391460873813103,-0.015141498398337802,0.0027726026399961653,-0.0003343749115574766,-0.009610428916748308,-0.00920709074196825,0.0008428724805279088,-0.006213188192814176,-0.009031997769864944,-0.00023844235967311546,-0.01124321508439911,0.020021231684187075
pub_rec,-0.029030331152818074,,-0.06258896638011216,-0.06258533412970387,-0.06259090785472175,0.044601108509391085,-0.05192508496641011,-0.010193494324998801,-0.029692039344908223,-0.01804046388463761,-0.17269437164249943,-0.172691233973237,0.06076100370212521,0.05182735933570179,-0.2133724260431027,-0.01861902382601394,1.0,-0.0827989043866658,-0.05045457710831538,0.002735812544857813,-0.052857025366713696,-0.05285931820696381,-0.024113195097422106,-0.024117404052563084,-0.0274778484125472,-0.0055905883796173355,0.0017299228594703886,0.006595299129933601,0.008104291679941698,-0.013534917847748136,-0.07102128475873071,-0.0613710289575559,0.01734022294020985,0.033122831192778875,,-0.016013164715675657,-0.004172150978582095,-0.002508992224170468,0.025428590646145832,-0.06041025986498897,0.041405092513385484,-0.020001950016282313,0.0205057111010143,0.0242476995196558,-0.013016830084529843,-0.013805207977670998,0.01762676338994544,0.057661514996562274,0.06934646718232493,-0.0596988526741385,-0.0009563259103935815,-0.09719063317414864,0.03527225862577137,0.00046576845510590747,0.05574973267121274,0.08219839129070662,-0.04705248105896096,-0.07870372634198065,-0.023194518621741926,-0.0041593685322589054,0.0005711830325278357,0.031021911088035495,0.03747869923323707,-0.060317854353366646,-0.050980091921625115,-0.006693845618105696,-0.04454784079093181,0.03780226227422715,-0.0333415420822756,0.040689972570974425,0.010486227220385785,-0.027777695548945488,-0.0004977146920540755,-0.03172554748736279,-0.0028866740743961543,-0.01174075413840759,0.002740437935432312,0.01725449116269809,-0.003675912964489995,-0.0221668709765727,-0.003655653324303129,-0.004895424848886643,0.0007307643661197926,0.07532224354539897,-0.009439766163441755,-0.030998148493617657,0.5990050820128682,0.7618622791070927,-0.06672549320162792,-0.05065469473175437,-0.11571462575251133,-0.02186551848417833,-0.021100398526931,-0.011531888396729854,-0.011531888396729854,-0.008149209487293849,-0.01392173767919411,-0.011948065457384466,-0.0010459002851647117,-0.01223984304422437,-0.009569384112612085,-0.004041514120881546,-0.005903251342782034,-0.0008032541111126615,,-0.0035078086336687055,,-0.0009222087875345416,-0.0029731837524238107,-0.006346023456608291,0.0025343042228733073,-0.0022937832818914206,0.00685167199436686,0.0045326133428047945,-0.01873367997617034,-0.018938483804854547,-0.01855336543221698,-0.014963842198790793,0.0047347170295099225,-0.0007567677942805522,-0.01816612275465125,-0.00904246333637865,-0.010572159501482166,0.004657198358198372,-0.009528298943812848,-0.01190052125548393,-0.014753374671041307,0.0344063957400362
revol_bal,-0.01188696182990504,,0.3232615878705331,0.3232614764115856,0.3232256151592318,-0.02911512029696609,0.3089231896524071,0.25763504127389586,0.09851749126392556,-0.025018359501233246,0.013589940165823856,0.013585035615089409,-0.008896643823725292,-0.013318359450890192,0.00821697299332375,0.23968669270100215,-0.0827989043866658,1.0,0.2445622548292014,0.2083823427757558,0.12314752929691644,0.1231554068965978,0.24888003111294488,0.24886573183691765,0.23455747641299285,0.1833745396070536,0.012536216661691043,0.02487241810286713,0.024842219222238563,0.10597222905141239,0.054228792815486614,0.05159422909017563,-0.02872825741459274,0.0002822828596639982,,0.07329483217100345,0.04032067709113957,5.147068315152867e-05,-0.024744369832063896,0.4295670737257264,-0.015008643032476315,0.010688303042054212,-0.023233205089426587,-0.010367900765203438,0.006948179167673158,0.0825823727445522,-0.06551611327675454,-0.010625238829722964,-0.006021550777209196,0.4633818523282589,0.09335171766658555,0.8167904355827261,-0.034944546013062454,0.030196811815865948,-0.023718659582485358,-0.0074059584149221,0.26974567472969513,0.17962302407094288,0.17648831873025803,-0.013969235253441667,0.0015751499417209448,0.10925496345887616,0.23012341187140978,0.022668292182880936,0.025060886342797677,0.21103245994483263,0.02838849452533306,-0.01615496145240573,0.011219342259772348,-0.02236869410042089,-0.07672647985257326,0.322564244046828,0.32134572869690464,0.2858636249670226,0.24063628661895453,0.030737123347311924,0.2493357777404832,0.23002329831709306,0.32133883984570744,0.2387831116585629,-0.0027164046079688987,0.0039051783637104034,-0.03152294887558737,-0.021185013180609936,0.11114007245203392,0.14072854117259803,-0.11293054752410532,-0.010950439435757346,0.45010476377378317,0.5147388038949947,0.52026566649159,0.1398802689561672,0.10896974610024247,0.026405617374568282,0.026405617374568282,-0.004343145251595076,0.03551522520021721,0.03822788796044433,0.02075636242797296,0.005872970119233863,0.035140437033975375,-0.001898241069912323,-0.005641395697623564,0.005634450547917392,,0.007572621774094555,,0.0027626863650463927,0.006153635808019326,0.010558459389208012,0.003831973982497674,0.025765527079704746,-0.008449217456908034,0.0037494577731760946,-0.0010763671770537605,-0.001677602218547234,0.0004844427083092006,-0.001569036460114887,0.004496768447999334,-0.001660177885176983,0.0015142298517295757,-0.0014472408050947392,0.011996435852904157,-0.012173838043996897,-0.0014597459280944857,0.011819948806210541,-0.0004247216224548119,-0.02382905693727777
revol_util,-0.18965726267609972,,0.09708927893355679,0.09708426845419785,0.0970182480719667,0.2542273142707889,0.119150179245773,0.03414637107790359,0.11458971618421576,0.0008384522779882787,-0.47487041878611436,-0.47486905278451647,-0.07935769202664085,0.006288795359845991,0.013096813560205004,-0.13504321229962407,-0.05045457710831538,0.2445622548292014,1.0,-0.08818679929516784,-0.04424289312797523,-0.0442437859168743,0.15883693273262448,0.15879802696704076,0.11151637070761526,0.2246892496625059,0.036548310703395905,0.054059866593494404,0.04932177077622362,0.013948100061102999,-0.19128868979883232,-0.13705006856230317,-0.03477767788677393,0.0017247856081752913,,0.0036306674973809044,0.04224462260365358,-0.023828120381085602,-0.03219682175617431,0.0877022826156158,-0.14539655632937318,0.010371115628619464,-0.13326178355379933,-0.09050901962443159,0.023005939659104555,-0.006443054365832171,-0.042134822121908964,-0.1811360715034061,-0.20475037422791795,0.1865695914342661,0.5364251330852675,-0.14314939622479322,-0.12477537971964327,-0.028133473946007143,-0.14034849310463135,-0.2203126032364922,0.12814196877042866,-0.48034454979325236,0.8616171849250568,-0.013460869228734969,-0.0062211743301638575,0.07335349331688165,0.021117930916900403,0.17077042702914502,0.159010727505407,0.0419458878034753,0.14376914249287515,0.01316170609212994,0.07493152779063991,0.017425582033653415,-0.022933136147404352,0.11093965111216764,0.1153441563619702,-0.11917532376636704,-0.12174368407158705,0.028257034879261816,-0.1958079383668583,-0.16608471489648063,0.12131983028385597,-0.1353794961151393,-0.01738027666770932,-0.014038072603254455,-0.005626152472923292,-0.21455980480723422,-0.02634639094285426,0.7356573757922246,-0.07890311445306614,-0.003970060297717706,0.029468833215617028,0.12338339911008271,-0.16808526275897817,0.03401802161363484,0.037219031444252024,-0.04164992138213593,-0.04164992138213593,-0.0347842794482956,0.005547769682631455,-0.010805838402054778,0.12713893635091122,-0.00265116235334862,-0.021036068246807798,-0.007169690240399157,-0.007908608548429747,0.010242187644598446,,0.005926839934243232,,0.0037622036577539364,0.005742664431235997,0.0006021959473601525,0.001457290325662443,0.010888163278383047,0.0010957401595494448,-0.0075071378709505605,0.05233949306570644,0.051384764510059674,0.04569087159838173,0.05976568326612559,-0.002550287832336004,-0.003353626850859277,0.05663397882560308,0.01703063139661569,0.04152432845290691,-0.029169438660142953,0.018433971063611585,0.04339251954387004,0.06226033970501081,0.06484794938707232
total_acc,-0.09263498867138217,,0.20353902508629004,0.2035270601902428,0.20349819503057087,-0.04088831370073028,0.1807119471044892,0.1525883380777421,0.1459439230482315,0.11689540607760286,0.015053316977497877,0.0150527246567392,0.15841548725811813,-0.008985946942275698,-0.0586004995990163,0.7202787410218169,0.002735812544857813,0.2083823427757558,-0.08818679929516784,1.0,0.00728059759071347,0.007294226186118974,0.19671237638898734,0.19670581101648082,0.18881590025198453,0.12660612777834887,0.006054851902323271,0.04631731758995232,0.04662029420557207,0.13548878426754185,0.02626861988738867,0.04396241307651729,0.005972596922146095,-0.02308980476602175,,0.047169286780121174,0.04662464466362304,0.023941308978626206,0.02319529601210003,0.32583754542704446,0.20857325013282127,0.30247725402608616,0.15670233595533528,0.2575983831857981,-0.1544253975357575,0.31549309385542085,0.0852864175671415,0.18584699876191832,0.23185731698838566,0.07575695708456462,0.012798275608977524,0.33895353472923645,0.09481336923679905,0.19514459178157118,0.14450945851961275,0.43133958534105393,0.05592472695284515,0.23622299066831376,-0.06488652595899137,0.043281319498731076,0.00828429117706201,0.3354503813953284,0.28353105233452175,-0.16993439387712977,-0.21664249755029144,0.36722569096786745,-0.12578291210582954,0.020007005555331702,-0.10629683930176459,0.0068328640076319135,0.1527851994285386,0.31412808829091454,0.41629902966672677,0.4150623494051309,0.627270624814357,0.6908677478256853,0.5746260972534806,0.7620864396898098,0.4174569638116968,0.7170325264554356,0.010123755031716933,0.019907337580895343,0.07032077005933389,0.3316301249110861,0.01821304531148485,-0.05173721774953313,0.02330371527872363,-0.012561539602588684,0.34973893185985333,0.43909911730751633,0.28607962096284995,0.42383770473066346,0.05041707115612893,0.021516212096548644,0.021516212096548644,-0.007250376327867965,0.04549006709279575,0.05087826177574801,-0.022000908630647874,0.013916764396933602,0.06231512553075944,-0.0027722629381835423,-0.007390482953911731,0.00790623851654839,,0.007648965206311258,,-0.000819631056158416,0.006053940194186105,0.009762089416352891,0.0035153986395689667,0.029826356142181886,0.008621375829076251,0.0019109995882829153,0.013225254510028261,0.012196242603609193,0.010282790270194582,0.021520915343834213,0.00048160175979716004,-0.003502486530923728,0.015007037419256528,4.8787423035629576e-05,0.0206689045535006,-0.019478619661149395,0.0014347150240502662,0.021257680854476244,0.01832766772490303,0.018543364494588186
out_prncp,0.5559597658481896,,0.46951524561960606,0.46952030031217273,0.46970224943166616,0.008873778030955477,0.38344919353757495,0.11565690545357478,0.06076499885958688,-0.031767983605187844,0.1343037071206474,0.13430409759394712,-0.09055488343238813,0.013256170052131422,0.047562578104964705,0.06614060993104824,-0.052857025366713696,0.12314752929691644,-0.04424289312797523,0.00728059759071347,1.0,0.9999987461144172,-0.21540975932989637,-0.21534198641104943,-0.282118244505798,0.11390750280978033,-0.004898817226459855,-0.1133137528144775,-0.10977032858945221,-0.2714544558864474,0.17954468983194777,0.15734058567244572,-0.010579513631511285,0.014396139157310174,,0.1400051854984546,0.030400815284428295,-0.02055818304756351,-0.009569080129075617,0.1170178807955815,-0.06346656106006258,0.08152861608944416,0.12982212918917407,0.060672980017923255,0.07989822968787884,0.14247318435208206,-0.09554927068217144,-0.013932235695991516,0.009991323334618557,0.200822528453045,-0.04635310614503797,0.1814637340134169,0.14941378349666662,0.1533444902635504,0.06429481057915948,-0.03566034496392032,0.07983840134037502,0.16319059702155292,-0.06927931168397573,-0.0074034543291051184,-0.00048614364717274,0.03601862361063203,0.04732702072924868,0.06204012450091655,0.04689211335274135,0.014010629878743434,0.03672321159841612,-0.01246643154246649,0.040279960952068615,-0.0007062896343959238,-0.028387166069345743,0.07980535829565708,0.04391132167756471,0.09339516184267664,-0.0013804242663863486,0.01904544249044344,0.05694601468679368,-0.009407020667858205,0.04381381443474529,0.0674887553133439,-0.011048163846928836,-0.015211535006426831,-0.020794194946807735,-0.04657893505836405,0.038911014899337314,-0.08090713237743624,-0.03350479391633335,-0.025817331991468944,0.140245250366586,0.12824051816791898,0.2058552627653406,0.1205303530319157,0.15165133733598127,0.05228777437019668,0.05228777437019668,0.12235288306320798,0.11348465826148024,0.10652367093281834,-0.01531955605504065,0.09330356098925578,0.09120410390121732,0.02438357956233429,0.02659649705416111,0.019583666500755357,,0.029914180622362053,,0.0019593604373658808,0.03497415445626469,0.036513234369549286,0.021384993607861575,-0.015452454813952023,-0.025100086293660808,0.008413323906377395,-0.0940178267057069,-0.09210168677038968,-0.07887247813677946,-0.11260318869190646,0.0009675339553873712,0.0018935562999972142,-0.08670847497372414,-0.03493841608715863,-0.05669423553217997,0.032949415794368546,-0.03807141853314041,-0.06175331947430775,-0.1040628073506376,-0.17167770392834364
out_prncp_inv,0.5559125319578853,,0.46953535574351535,0.4695404095581451,0.4697254170376172,0.008895912060783715,0.38344203541508226,0.11566771800743536,0.06076185907102252,-0.03178332803261184,0.13432933149013937,0.1343297226148937,-0.09055516893340647,0.013251996634269677,0.04755963076701825,0.06613976258769691,-0.05285931820696381,0.1231554068965978,-0.0442437859168743,0.007294226186118974,0.9999987461144172,1.0,-0.21539999363514198,-0.21533088181153245,-0.2821051969229331,0.11389947828575563,-0.004905618564905736,-0.11330137362623556,-0.10975833650970038,-0.27142330467695747,0.17954298805789912,0.15733557215464966,-0.01057948978752492,0.014387014933798795,,0.14002604670304813,0.030397528877833757,-0.020562654063701058,-0.00957027384858416,0.1170373332554981,-0.06346388860142682,0.08152390887876661,0.12981768050461212,0.060675365818305106,0.07988677132620414,0.14248386274529642,-0.0955386491769187,-0.013938724567236325,0.009983215559515422,0.2008319689964412,-0.04634908076711496,0.18147492180328473,0.14940513031284064,0.15334489612181057,0.06428931434409253,-0.035658121952989515,0.07985759728645264,0.16320172665247762,-0.0692810668221637,-0.007399475969725493,-0.00048390908208910004,0.03602720399153091,0.04733153951798708,0.062036911369909034,0.04688732017361566,0.014031971968958726,0.03672218590812967,-0.01246774130994463,0.0402800060743318,-0.0007118137002295098,-0.028392764366647914,0.07979866630901078,0.04389985520109742,0.09339475957582652,-0.0013718772455087967,0.019056434588881812,0.05694217104762513,-0.009401999866684305,0.04380402022278794,0.06748842840112386,-0.011046023740590796,-0.01521962437771919,-0.02080961409642213,-0.04657515400292705,0.03892101489273119,-0.08090445472436616,-0.033512093274367605,-0.025815891556591593,0.14026500202631031,0.12825445932370622,0.205867578026782,0.12054162643727508,0.1516665925091903,0.05230518474010266,0.05230518474010266,0.12235895173102723,0.1135049874488475,0.1065410168360377,-0.01532987240018353,0.0933099128432449,0.09122320838367258,0.024386345426279814,0.0265986862754204,0.01957887621234131,,0.029911230249945638,,0.001959266979736928,0.03496920639421806,0.03650643814406186,0.021385297166948,-0.015450134634008112,-0.02509662002075683,0.00841260076068505,-0.09400756442694147,-0.09209163349396522,-0.07886386535162626,-0.11259089562350325,0.0009705469373332879,0.0018960527160588854,-0.08669901628363928,-0.03493459916980279,-0.05668806694362808,0.03294583984641474,-0.038067259344648365,-0.06174658984934452,-0.10405144832935619,-0.17165818753833317
total_pymnt,-0.416180929688926,,0.6596964468509013,0.6596983251853676,0.6595570557775228,0.09573730344310775,0.6581940686692064,0.19154696070623542,-0.0049165730488178495,0.015539237713026812,0.010523367107790055,0.010522298566055308,0.029501323193050065,-0.024115510734884413,-0.028434960491705415,0.1363960292614729,-0.024113195097422106,0.24888003111294488,0.15883693273262448,0.19671237638898734,-0.21540975932989637,-0.21539999363514198,1.0,0.9999961769882595,0.965927405460209,0.6914137097855314,0.06877352562861327,0.0037981841272829876,0.006898191329108574,0.5838772149270299,0.12714871150028717,0.11810075086028318,-0.019021466639247902,-0.012039445746285356,,0.014651412067205702,-0.0077113822022247345,0.01628171145107517,-0.008084420619646255,0.23860679168981594,0.01591114891841669,-0.034899521361872216,-0.11591492321179439,-0.041458713994056824,-0.059351911102561654,0.011391645780309777,-0.0025878344890013314,-0.03972517182027958,-0.05077994972927589,0.09282265089865765,0.04239760480009372,0.22024425148371865,-0.12444561476983242,-0.06513308580739122,-0.05719234199124129,0.0005427152385764424,0.17678554306335661,0.0734199530039639,0.12377926512422596,0.0022335088638551184,0.006617423138595323,0.1031602910929461,0.14511277040983958,0.01973780485676005,0.009752254642474135,0.22516103975016835,0.024631482719969126,-0.01132289180063093,-0.01285303816560884,-0.01965084834038133,-0.03180520739230864,0.14320408579601412,0.13105543054207694,0.1429778198133853,0.19781842439099454,0.06399344626519352,0.1234018541058889,0.17517454854850367,0.13073462702582533,0.1358982863477206,0.010424944999262852,0.015031048644882652,-0.009680771283131955,-0.017365502589544085,0.052794087335240984,0.0998127251526465,-0.07284636823548632,0.02165232662652957,0.24470000084180504,0.18867993351885295,0.21312811397360265,0.1221056293725902,0.0007622365422932918,0.010992773617855823,0.010992773617855823,-0.05040484248349784,-0.004969829434968531,-0.002214330546059678,0.012628463794664018,-0.02409852790283229,0.0023441138560529023,-0.012774724194393211,-0.02029850450257867,-0.0005665865486483168,,0.024020883210446563,,0.0004044682578527552,0.025533231956311055,0.027073497406283127,0.019495383127603513,0.04241132863749817,-0.007980254593645004,0.0029287503614441068,0.07755332794685571,0.07507110536948441,0.06733456864448088,0.08695943950873625,-0.0003144355171312766,-0.005196715937757247,0.07595358628684312,0.025105196085263612,0.06711955356805455,-0.04857495344916618,0.028331181851575547,0.07168606598243786,0.0866185044440946,-0.14096622218824928
total_pymnt_inv,-0.4161156767111968,,0.6597472395327247,0.6597491133618271,0.6596159965191685,0.0957404465330623,0.6582065887301571,0.19158040488643438,-0.004948920557031669,0.015506852781496211,0.01058944551067366,0.010588377892282529,0.02948724076962817,-0.024103194388519992,-0.028418140115555362,0.1363914822268096,-0.024117404052563084,0.24886573183691765,0.15879802696704076,0.19670581101648082,-0.21534198641104943,-0.21533088181153245,0.9999961769882595,1.0,0.9659291886412733,0.6913987274865353,0.06875917376682769,0.0037821000964358095,0.0068803779764746815,0.5839161835725625,0.12717509920376355,0.11811828602728636,-0.019029529773890264,-0.01201944283850298,,0.014674734741610958,-0.007707602633148693,0.01625164714125125,-0.008091793396748197,0.23863143021387923,0.015913447264570637,-0.034906449309807804,-0.11589367853898892,-0.04144627385268656,-0.05933905897046001,0.011397662538816208,-0.0025869845203904443,-0.03971689617974248,-0.050774894909522035,0.09285547256566183,0.04239346574586404,0.22025539442795924,-0.12441437707920414,-0.0651087333941701,-0.057183744958057156,0.000540569866953394,0.17681790790662083,0.07345592215296375,0.12374286538142654,0.0022255551794132552,0.006617366191864078,0.10316025152371461,0.14512452076676347,0.019737147642604445,0.009751140612433132,0.22517137546156676,0.024634276087735697,-0.011312679896370387,-0.012853160194725944,-0.01964402258017853,-0.03181738129257969,0.1432007255049903,0.13103348148516566,0.14299134847178685,0.1978146651751821,0.06398792577521624,0.12339999227845148,0.17516714093060298,0.13071152465214336,0.1358941232252593,0.010392105528025435,0.015005612487596132,-0.009716991051282906,-0.017358562786175754,0.05280848123533609,0.0997809049627688,-0.07285332551812872,0.02165168255620294,0.24472865040124928,0.18868163247051825,0.21316240889668636,0.12211268044478457,0.0007822894900744668,0.011003410475636452,0.011003410475636452,-0.05039091953290253,-0.004952516038170802,-0.0021950622767574106,0.012627150801208095,-0.024085579089038932,0.00236180746662149,-0.012770183300618744,-0.020293374862916973,-0.0005659439022583301,,0.024027965537850117,,0.00040395421703780433,0.025536722028613523,0.027076177172180704,0.019514421227007236,0.042407374328324345,-0.007995261158918179,0.002936899326750992,0.07743020798258839,0.074949036885895,0.06722917207983967,0.08683823210623767,-0.0002940730528710026,-0.005196308298189846,0.0758461705837552,0.025055130290622354,0.0670421909214877,-0.048531398503006036,0.02827525271726221,0.07160641920301938,0.08650215446337266,-0.1409804923025356
total_rec_prncp,-0.3961490915421317,,0.5827461424594704,0.5827465096801726,0.582611919538671,-0.03133937637668312,0.6021246117433229,0.18965573118601994,-0.027516339271845373,0.007215192973011505,0.0546509529692696,0.05464922215963165,0.013650370775440006,-0.019131253578021843,-0.02544008990283504,0.12298387555774415,-0.0274778484125472,0.23455747641299285,0.11151637070761526,0.18881590025198453,-0.282118244505798,-0.2821051969229331,0.965927405460209,0.9659291886412733,1.0,0.4931850103117128,0.03436718001324211,-0.11284010114769741,-0.10700537272346212,0.6704068903493199,0.19977780972889975,0.17507289127140607,-0.02067227064868889,-0.00814582986053011,,0.013092045614569102,-0.015485423773771628,0.012395254943337649,-0.0068369690303842585,0.2374143510978821,0.010205060773771864,-0.03832812367339036,-0.1151539894998235,-0.046203024323276144,-0.051913418730601874,0.006005160533662089,-0.008556374926067272,-0.04178284618102764,-0.053523723995257205,0.08773191715171327,0.015187291137999,0.2294978969369715,-0.12399042012214212,-0.06049649704522458,-0.06091152798375487,-0.012358261416672739,0.18102337987837439,0.10896989252993362,0.07733795064058803,-0.0006838833849455789,0.0041958805538394066,0.09630560353892818,0.14598864036040485,0.023449372449300385,0.01587546465788856,0.22558461811530647,0.025520857752753326,-0.009580366157655715,-0.0032078708863401252,-0.016745452633605423,-0.0343427822648398,0.12277785755979609,0.10160688854766729,0.13863014490063866,0.19883431794140863,0.05448269959985826,0.11303709487968654,0.17221093980584437,0.10080360702260044,0.12252918947721896,0.009197031255168686,0.01146238737020191,-0.01284368801996428,-0.027883511266386066,0.05776706831736369,0.056598081178764574,-0.07252470900693182,0.017953254524301767,0.24711835056773357,0.1711368921764403,0.22745148460807638,0.10798104753263205,-0.0051075910962834915,0.017810476988958886,0.017810476988958886,-0.05416784321558937,-0.005785310503576917,-0.00677415236711358,0.0051310444678790215,-0.027505254896543777,-2.5201076344170894e-06,-0.014319828978349509,-0.021566495250208314,0.0005050828888052785,,0.004529345136978367,,-0.0017183331096727384,0.008893873469295401,0.011646358547474034,0.006189792822200113,-0.005969124950535726,-0.026036615096255333,0.009233607993963926,0.075393175399612,0.072993267296387,0.06561886798707199,0.0839857719755588,-0.0011440996031441713,-0.004968805291481194,0.07417733567008919,0.024795302130790203,0.06360501819702867,-0.04544028178794088,0.027840898047521403,0.06780635935404569,0.08381029517805617,-0.22982054261383045
total_rec_int,-0.27586331337739434,,0.5894914165071369,0.5894965990095712,0.5894060546955314,0.40874450494991005,0.523879138662806,0.11363491630548461,0.06210911587527452,0.029649231073101853,-0.11311202686395481,-0.11311076425380429,0.05178140817787376,-0.027003358877170366,-0.02379092276162504,0.11217691976321253,-0.0055905883796173355,0.1833745396070536,0.2246892496625059,0.12660612777834887,0.11390750280978033,0.11389947828575563,0.6914137097855314,0.6913987274865353,0.4931850103117128,1.0,0.12305033227151027,0.07625688896547603,0.07712985146060708,0.09969558270416769,-0.06807315253898971,-0.03693509752527,-0.0072119466124475635,-0.015765049604492234,,0.01550636065591528,0.018471801127389383,0.01878641188653666,-0.0075776284497062075,0.14059141647034146,0.018190812026052876,-0.007482010260720065,-0.06727329766197414,-0.0119125311171855,-0.04840444667843162,0.024442182803256243,0.010161283234141923,-0.020147682510393675,-0.024710717246904903,0.07184873795661326,0.1009517061192697,0.10006452830922376,-0.06966616926356071,-0.04755270713731502,-0.024346111098106443,0.023466147144017513,0.09110920853496826,-0.05782405512941013,0.20129426711226767,0.008738833513107407,0.01006137551091737,0.07876116178028703,0.08228014930205857,0.008142770981889867,-0.003622822372032075,0.12589460984654713,0.01880437838549825,-0.013571801552111441,-0.027793252242040094,-0.020147740187443437,-0.01302235480269849,0.13905735058444607,0.15652331398462888,0.0915840857333858,0.1021858376400454,0.05933381216887037,0.09624280784760443,0.100716358731985,0.1577303866422824,0.11185822362403659,0.00923570652824233,0.017407267853167426,0.0018735545114784325,0.00839445478997344,0.015324349250568105,0.17812509323099465,-0.04523998680820691,0.023276096831212578,0.13421939630861582,0.1566986988022505,0.08276701741062796,0.10912567241150008,0.019937817320233336,-0.012340147200438398,-0.012340147200438398,-0.014919014543194943,0.002497717347629087,0.013186793481711227,0.028851492147223275,-0.0017690231520124155,0.009445575542381278,-0.0017668669165611963,-0.0070063522694172415,-0.0025702612728580173,,0.06882210758703772,,0.0047260630324212185,0.06331582480334104,0.05755508421269176,0.047393865673425975,0.07162115146873436,0.005855129524338614,0.017064517511668216,0.04862742754626699,0.046945517540360575,0.04153035893796737,0.056369702588807594,0.0011522960096023733,-0.005033994085175258,0.0472365652385519,0.012931088389550665,0.0476025825066525,-0.03731837388598815,0.014771392001281908,0.05140358536928075,0.05613322869473905,0.049327193118219134
total_rec_late_fee,-0.02022295047513199,,0.07059393843595971,0.07059531725534074,0.07056083407799693,0.06708650382863816,0.07998231672185421,0.02324738136908214,0.004188484249941543,0.03813128704187997,-0.03444006405338697,-0.0344398552610832,0.013029488223912972,-0.02452189952792998,-0.012871179851590128,0.00286636502297319,0.0017299228594703886,0.012536216661691043,0.036548310703395905,0.006054851902323271,-0.004898817226459855,-0.004905618564905736,0.06877352562861327,0.06875917376682769,0.03436718001324211,0.12305033227151027,1.0,0.06895576167481426,0.06954996943456818,-0.023109530225462586,-0.11186731168238098,-0.0807276406935633,0.005228741898122428,-0.014713843562596338,,0.009959535813670503,-0.0010082104156733907,0.006334281239006263,-0.002533919441301963,0.025020257805612116,0.01030735190092097,0.006603110777388699,0.010224600069511463,0.007399777749224629,-0.006889983329350899,0.016002442475562952,0.007606098696337495,-0.00141364981743211,-0.0044230351510916545,0.004230517990913193,0.02379892086508243,-0.00413022258982675,0.009058167316384211,0.005188991447718035,0.016994079501351084,0.0071420273673069995,0.020447026962519876,-0.022526698126091493,0.030230817360137906,0.00011781415513141446,0.001039423589173364,0.006553736780863163,-0.001508785883369482,0.0043873189691603295,-0.007040366390439124,0.008294548327102198,0.006356072141586743,-0.013579975405829933,-0.014692410847105037,-0.01757882073883876,0.014191976128248676,0.006172828225860946,0.010924249631304978,-0.005330667254860562,-0.005153821076226383,0.01225816577862038,-0.007936212781946794,-0.00521384049806932,0.011287145607586492,0.002998881414905627,-0.0020788851634041907,0.008691318647564113,0.009073747100708813,0.011530602258220975,-0.030836844091668546,0.02945167025597301,-0.01333302545282442,0.01044277289278475,0.02222097610110372,0.027237567431045915,-0.009650419228427898,0.027702598128247095,0.00024187039943622272,-0.01699140898918675,-0.01699140898918675,0.00957635025856879,-0.0038739144681846907,0.0022317351735820124,0.008390365651856671,0.007503753484635404,-0.0003766130167578874,0.0033616969793933715,0.0019577710257272637,-0.010565538500792874,,0.06734709432434664,,0.06943064356906706,0.06803428875695651,0.06031363992507732,0.07546187836002123,0.039974595708840266,0.051398499920890704,-0.009558573202167513,-0.007992109345433413,-0.00813461986374583,-0.006392893152833044,-0.0069867815112797035,-0.0015534495678888379,0.0021235365355694222,-0.007618921847454987,-0.001473120638501974,-0.002542311275130876,0.0015326139066503238,-0.0009303684174181861,-0.001845757737752127,-0.0063618460634666295,0.13026840876632884
recoveries,-0.10599591550764771,,0.12732906447821815,0.1273311980224127,0.12728621923351624,0.1474893839755414,0.1263319006518332,0.015745158535221508,0.018407153811786828,0.018021297576370148,-0.06193098889873151,-0.06193039892705002,0.0512657209107995,-0.008827394157394718,-0.007471200161278401,0.033199305808036865,0.006595299129933601,0.02487241810286713,0.054059866593494404,0.04631731758995232,-0.1133137528144775,-0.11330137362623556,0.0037981841272829876,0.0037821000964358095,-0.11284010114769741,0.07625688896547603,0.06895576167481426,1.0,0.9737838417531713,-0.09091499584693362,-0.28696540210953747,-0.24492165456574438,0.0040326636856104475,-0.011606783662046604,,-0.007280082619292472,0.0041536822174546685,0.009815918567983875,-0.003591982994696925,0.010462640886727742,0.030683393860355755,-0.008167148571842022,-0.010942111840147942,0.008021400265431316,-0.03305033962783832,-0.003699144232766807,0.02376506688198107,0.01124903429549567,0.01202733096151525,-0.0054013831195475264,0.029426322084717894,0.0013719535932761907,-0.01668073845539258,-0.01773294720299844,0.007911911501687425,0.058781769530724115,-0.0022577757448754665,-0.03331974488630929,0.05446064067117338,0.005715274233483523,0.004685531530333744,0.010648512174886847,0.0005264166871226093,-0.02816884649095565,-0.0335298278933126,0.016882972430860718,-0.024762262704676553,0.005425760310785668,-0.033597398123732504,-0.0011974105952619965,0.007595904134069393,0.02947788433771017,0.041464443100131435,0.020327399359678044,0.03726060615372051,0.02687829445647702,0.029300379943425294,0.039221168087255225,0.04182625637785524,0.03282527847761733,0.002466378811811439,0.008588776245029586,0.007787514665955502,0.048832341981594515,0.0011008579042655615,0.05123361894386165,0.005381016526391392,0.0030951786678884725,0.006041522728762056,0.02939993965743034,-0.007738285391225308,0.022013895284771663,-0.0042479626919822615,-0.008137597220796796,-0.008137597220796796,-0.010364153550652762,-0.009906111199207701,-0.0010635810768598666,0.006415377645650728,-0.006251660465108522,-0.002654691677189768,-0.003243841615010498,-0.0033527885092269048,-0.003637322418170282,,0.01949133306174524,,0.006259910822470803,0.010882310018483768,0.02102344771326798,0.017714462009780853,0.35907908269774064,0.15737108652787443,-0.12100002889397762,0.012604246562640283,0.01249980516000273,0.011601570710022277,0.013658000911402872,0.004337493220474564,0.0043861527637691295,0.01002595693970953,0.00960209320449006,0.009460228291723683,-0.00327845652367694,0.0117211111748382,0.009501127118158844,0.011990582438501452,0.49847482029861434
collection_recovery_fee,-0.0945843926343397,,0.12416396388375758,0.12416603053636725,0.12411949203934733,0.13996952539227014,0.12257794191898926,0.015553348004323635,0.01902284160883987,0.018817528563351088,-0.05894420349984246,-0.05894366470881481,0.0482224192374203,-0.00894651299591059,-0.007506957272787565,0.03393985282433605,0.008104291679941698,0.024842219222238563,0.04932177077622362,0.04662029420557207,-0.10977032858945221,-0.10975833650970038,0.006898191329108574,0.0068803779764746815,-0.10700537272346212,0.07712985146060708,0.06954996943456818,0.9737838417531713,1.0,-0.08805449260861821,-0.2783149231976062,-0.23724119692879433,0.004666340581043407,-0.011103284053142216,,-0.006950126969405515,0.0037184078792667635,0.008888423212471136,-0.0029664939773611254,0.01145391384100857,0.031076308267128552,-0.008247753050823207,-0.007296022282674052,0.010132414558143902,-0.03173398617367259,-0.0024296044518197788,0.022968485867654806,0.012819857334376586,0.013798598329971032,-0.005337108651249304,0.02841097817354,0.0030810997624735456,-0.013407030489983936,-0.01548835724014634,0.010479937363833135,0.05945333714999436,-0.0017693547759933008,-0.03062519971071318,0.049801019288606044,0.005658815787569155,0.005043087219254874,0.011598309997807208,0.0018195838395412946,-0.029662529713930297,-0.03494073572281915,0.01700900350349614,-0.026041566204712343,0.005244787987806603,-0.03272395791468685,-0.0009983510628359341,0.0076179987617940445,0.029564701970415178,0.04146551679443538,0.021272523129948526,0.03570090144922377,0.0276626845722187,0.029991286246413427,0.03900898872046107,0.04165557122360669,0.033513485200658964,0.0021490508820386604,0.009172250409242275,0.008624697517409331,0.04977354437275304,0.0016833285624015472,0.04762886861436603,0.006591937457895971,0.0038856002660925607,0.007370802806246051,0.030483651915035232,-0.00614754545176416,0.023439586563361342,-0.004416324033574664,-0.007467558944360179,-0.007467558944360179,-0.010079454617444064,-0.00955374338937691,-0.0006508235926695666,0.00622216740523247,-0.005674249677691813,-0.0023232062562685185,-0.0031393284482793852,-0.003308928538325734,-0.002796904878240317,,0.016833889662500816,,0.006210583000423191,0.007234599254878163,0.019302787193857127,0.01710554031566407,0.37069913625855394,0.1631210523753515,-0.12407045065771785,0.00028775573155738677,0.0004664827395485206,0.0009767029711800239,0.00034199364319973904,0.0056692855102505645,0.004059661733621467,-0.0005135429138942049,0.00576012075439981,0.0013826837458626997,0.0020844224588416876,0.007597877243315819,0.0004022205761349688,-0.000615207210033027,0.48288705879624744
last_pymnt_amnt,-0.16097634851619258,,0.3149265581448347,0.31493226286014697,0.31488884416890695,0.07951258382596549,0.30465389598425074,0.10445212961981686,-0.01562894566134057,-0.006912814151954561,0.03723869903152316,0.03723719731373757,0.03948793121697387,0.005443865180107621,-0.0012975680467518218,0.06887519813734636,-0.013534917847748136,0.10597222905141239,0.013948100061102999,0.13548878426754185,-0.2714544558864474,-0.27142330467695747,0.5838772149270299,0.5839161835725625,0.6704068903493199,0.09969558270416769,-0.023109530225462586,-0.09091499584693362,-0.08805449260861821,1.0,0.15184325253404193,0.1286407495643172,-0.012913603355054166,0.008149941429056656,,0.010737655644310989,-0.009199191719276995,0.0042541931785759135,0.0023154791767187465,0.160327914439158,0.033050411399880894,-0.011180438836999217,-0.0073830860236139524,0.02875405210492597,-0.05114659913782591,0.02359601759125133,0.016683958802239763,0.0027030130796886036,-0.0014931010314801613,0.043357235648072374,0.0014012840751029174,0.12023721420242496,-0.023771447806536845,0.00466349132886134,0.010557162599694525,0.06142824137937141,0.13104418097998266,0.07507921945794617,-0.0019636784681004685,0.00020076915467966285,-9.178755963563426e-05,0.0423771314535276,0.055184233517511054,-0.016773076549211053,-0.03609949695928841,0.1582567663488775,-0.014660664259292031,0.003310626323490528,-0.03301067800657279,0.0052633768281918165,-0.011812943754437831,0.03189321597628711,0.01921978072134578,0.06737235799125339,0.11707812895811842,0.0591473251660296,0.05841321377401018,0.10759380048672722,0.01719789189050428,0.06866093746731443,0.006193690867874974,0.0031669790143762843,-0.009752547642409112,0.04698893493301417,0.040213391103910257,-0.0008684946929280113,-0.014932521066344082,-0.006882849153600324,0.1619195484939141,0.0980957561081748,0.11431449842033509,0.07065441310650232,0.0025504237221612887,0.0099891484629986,0.0099891484629986,-0.01638761187958563,0.010795729334838577,-0.0007074167485923674,-0.003030845673376793,-0.011028305943651577,0.006160015295562535,-0.007242450905748111,-0.008617366969491634,0.004067509170618587,,-0.0009603664101101544,,-0.0024699716582899213,0.0020254264661838813,0.0015465283771485775,-0.004586533761564319,-0.010517826177681848,-0.023287306013726392,0.00586738696153508,0.030369995779306967,0.029601728959947685,0.026853249143204992,0.028565331217194588,0.00023536504003823468,-0.00045791475571742616,0.02849600329205546,0.009535734824038609,0.027513402250411757,-0.020356102410213784,0.010530023346652128,0.028080261471857475,0.027408329905837185,-0.18995246619993875
last_fico_range_high,0.1477287588396905,,0.09051925654327884,0.09051053404740507,0.0905605033040166,-0.34657113651687677,0.05905948666865888,0.05195675523721791,-0.034655014359548764,-0.09621184560580431,0.40046311461232503,0.4004616735099198,-0.1253378146531651,0.031672139707078543,0.04014952473789652,0.0010650734829608603,-0.07102128475873071,0.054228792815486614,-0.19128868979883232,0.02626861988738867,0.17954468983194777,0.17954298805789912,0.12714871150028717,0.12717509920376355,0.19977780972889975,-0.06807315253898971,-0.11186731168238098,-0.28696540210953747,-0.2783149231976062,0.15184325253404193,1.0,0.8439270674523685,-0.0332718122105356,0.031185460930265998,,0.029749099053932766,-0.014303932821684661,-0.00978613946595481,-0.0166375989838138,0.08955804674737186,-0.08842341586332658,0.0030698962052451762,-0.01087601474902967,-0.03466884996249669,0.049221559370580335,0.013094619559486452,-0.07614177186138013,-0.0785559132471366,-0.08825988718886564,0.07084285109848418,-0.1675646264951053,0.18648094944300705,-0.020567094608140362,0.037232259451960785,-0.07114733591888879,-0.14543114008609978,0.08903633122685109,0.2610632002517022,-0.2063464752657667,-0.017500424883622436,-0.00659136056481091,0.04210139295234433,0.12750592564521948,0.1007095015501358,0.09695906293619723,0.09332805045589908,0.08899932684145768,0.009381024469718996,0.08040506230772337,0.014616027465781268,-0.0779930247446818,-0.045565301482041035,-0.09849088157588418,0.031820801662879344,0.045800137101821174,-0.014949534065728444,0.00027483145686006086,0.03065496645954543,-0.09791504603457152,0.002352881378247795,-0.0012632470761905952,-0.010842259741162905,-0.05354518697125263,-0.13273154040522434,0.13568983533208914,-0.19341801200218725,-0.07049947528670099,-0.02621257970266208,0.12314912876394554,0.023871556395617118,0.22348421928141882,0.025324854444894393,0.02371805651814371,0.06619997251720997,0.06619997251720997,0.02230308967906487,0.037783130502188976,0.019424745901911348,-0.040728106831373276,0.021392267656128176,0.021150569630298852,0.0039036710216080405,0.0007300850628187282,0.007005283391202035,,-0.018948608900769142,,-0.007602648876209676,-0.01344360103616524,-0.013057529309690017,-0.020809756581123353,-0.02339458639731932,-0.06579701797326896,0.005403529836676475,-0.0020080056856943396,-0.002126979071277622,0.0008207600812455146,-0.006204232046627538,-0.00037794539458223974,-0.00016485763673274476,-0.004579383791985575,0.003508729907824755,-0.0009028473485318183,0.002916733211798111,0.0033641081541596007,-0.0025000669671449123,-0.0035426815436146145,-0.6194618914477519
last_fico_range_low,0.1270383002848716,,0.0743477928594366,0.07434128284516216,0.0743830018163041,-0.26768869164013426,0.05060046994443317,0.04815918877042321,-0.020942629888993272,-0.05609416752154278,0.2917315670075916,0.29173016431204885,-0.09652989734518923,0.01866925185136601,0.028054149928905987,0.012553668988866706,-0.0613710289575559,0.05159422909017563,-0.13705006856230317,0.04396241307651729,0.15734058567244572,0.15733557215464966,0.11810075086028318,0.11811828602728636,0.17507289127140607,-0.03693509752527,-0.0807276406935633,-0.24492165456574438,-0.23724119692879433,0.1286407495643172,0.8439270674523685,1.0,-0.02207550917023531,0.01737338522830459,,0.024761903539439228,-0.008789290446631421,-0.005632752931084196,-0.010303469434936431,0.08605619522828484,-0.0689270944505194,0.01604776543874147,-0.00045886976184727113,-0.01676974935870519,0.037618593537797416,0.024638088711290557,-0.05596575776712336,-0.06353033937103927,-0.07205418808761968,0.059538683614856196,-0.11645442857044029,0.1460977598556675,-0.00846015068321285,0.040261277871311084,-0.04943492432903643,-0.11293719047947699,0.08216898447248829,0.19036371720027892,-0.14625794845278564,-0.008934276189100379,-0.008817747372735767,0.046976068541353756,0.11240694178770969,0.0812514985033923,0.07496600751661296,0.0849508832821912,0.0756875217463171,0.005966884865597999,0.0599346855314879,0.009701562711255883,-0.048441646199527996,-0.04002887545557153,-0.07446107383285741,0.017372473751357757,0.038276599402465694,0.011350965454074963,0.0019896277793252687,0.034756082426326246,-0.07409048663940594,0.013457220631811656,-0.0005517714388834417,-0.007446483527004843,-0.03389720199955193,-0.10301714475641124,0.08424504855209136,-0.1380207095210246,-0.057509174277408696,-0.026271452963778683,0.11066447814432798,0.03852413154195397,0.1695087663660925,0.03866624011074993,0.01990056237053131,0.044698594483503475,0.044698594483503475,0.020060705374042722,0.02918454651176915,0.014933007645259665,-0.0274210406987606,0.017363438251818065,0.016260904033701996,0.0037708401768305378,0.002659799135136912,0.004256737185475269,,-0.014330617678380259,,-0.008657248831946185,-0.01066724093587384,-0.009748096798095133,-0.01490278097506923,-0.013431971061444009,-0.050571146027345346,0.00482084256033912,-0.004902524881025993,-0.00486761840434204,-0.0011578489750546088,-0.008648580451843496,0.002429219513408834,-0.003153945318525647,-0.007244939926724764,0.003525040794830567,-0.004041785735532982,0.005888863321667653,0.0042245634100143495,-0.004688627876273964,-0.006251770809741062,-0.5674730588401099
collections_12_mths_ex_med,0.015743246648876583,,-0.0241438165418603,-0.02414243797872657,-0.024151914651683825,0.01997961441309217,-0.019592576855284843,-0.005872811872679475,-0.008971754308649427,0.05915068858583654,-0.0758079646561844,-0.07580645381959977,0.01441788419039928,-0.022845245824126188,-0.015347516560317406,0.0087301647975724,0.01734022294020985,-0.02872825741459274,-0.03477767788677393,0.005972596922146095,-0.010579513631511285,-0.01057948978752492,-0.019021466639247902,-0.019029529773890264,-0.02067227064868889,-0.0072119466124475635,0.005228741898122428,0.0040326636856104475,0.004666340581043407,-0.012913603355054166,-0.0332718122105356,-0.02207550917023531,1.0,-0.10241300968902471,,-0.006241033364814301,-0.00013689101185594747,0.005238208627501144,0.046969000234147094,-0.012759210055098141,0.0011751124436354915,0.007064004161097292,0.0012823150216621669,-0.0029416706129100256,0.0038449755219431285,-1.9913354917341072e-05,0.00138528506806053,0.017513752901718752,0.019973418846145428,-0.024737057716565578,-0.013665457561486497,-0.0262792178426105,0.012806050979230384,0.0012591408987369203,0.01809430083037829,0.015558372405138682,-0.014292439566832257,-0.019948724172053976,-0.029816831616920825,0.031273240495722235,0.0028116782585199587,0.008034479825620966,-0.01144376673248785,-0.013204367216086461,-0.00835926802681862,-0.006934180520606049,-0.007120810431850584,-0.005158795652314041,-0.010108202514816103,0.002007295405625353,0.04675312264852988,-0.006314693243675246,0.008186308842519007,0.00012866058014914935,-0.013964932592296319,0.009662153312165767,0.005410322418880648,-0.002701275117667834,-0.0006916123029623362,0.008204641376440495,-0.003192713426492003,0.00017840486076153107,0.08941759524437015,0.012853468248086754,-0.05251324838691313,-0.027171942909871592,-0.001128938075167896,0.017266461047241763,-0.012666335153027073,-0.01614201618812335,-0.03183738366887141,-0.0033665477460604965,-0.00850917079740886,-0.006263145406907702,-0.006263145406907702,-0.0038627002830294,-0.006442516845896195,-0.003768744191273416,-0.0013865783374923807,-0.004071675138281658,-0.004383770140062287,-0.0005110173308229721,0.004918151832765986,-0.0030741676713249137,,0.009949298587675494,,-0.009716162847303015,0.003623020322640613,0.017056050049729952,0.006811343259777171,0.0014151902264588592,0.00024967659028035606,0.0049286431592447,-0.015276832060109265,-0.015130123374659488,-0.013899928025727334,-0.016435223465352426,-0.0017724628952269653,0.004747661071346897,-0.01371938349750356,-0.006529219091017531,-0.007322196202110402,0.0030687369239226947,-0.006928749497216384,-0.00762703670160877,-0.015802102518948032,0.006940945367530203
mths_since_last_major_derog,0.02478010989170657,,-0.002249677384897606,-0.002263817881944957,-0.0022451417965580183,-0.014698135221639189,-0.0059223559434188715,-0.009546672994713202,0.010972292076446271,-0.34818532492268583,0.027891430398609172,0.027890584819784504,-0.01412890600077593,0.493685449187805,-0.005584388171402221,0.00825629375447836,0.033122831192778875,0.0002822828596639982,0.0017247856081752913,-0.02308980476602175,0.014396139157310174,0.014387014933798795,-0.012039445746285356,-0.01201944283850298,-0.00814582986053011,-0.015765049604492234,-0.014713843562596338,-0.011606783662046604,-0.011103284053142216,0.008149941429056656,0.031185460930265998,0.01737338522830459,-0.10241300968902471,1.0,,-0.0015047592084327878,0.0037872259232474012,-0.07767769859156069,0.017186581542066977,-0.01331779253351189,0.008312376252376378,-0.004825338746940846,0.026786882281226318,0.034873094111892426,-0.012938270844137118,0.000143511955874324,0.0068612997898331,0.01331063197318323,0.03465378371313873,0.0018736393782554676,0.001785476959278047,0.006443728296968376,0.01243711004720239,0.005970525938196896,0.0026547691092353312,0.06490523345360222,-0.021935269337468782,0.008268449492768358,0.006998103809306602,-0.19849854773200074,-0.061801935978759666,-0.008900218158990728,-0.00920420393964244,-0.03872577637401784,-0.03533363645978668,-0.0271157928884708,-0.046102627823932,0.3224431085240899,0.010581665690122267,0.34229847187828183,-0.07233008307715273,0.024113827551335038,0.021013785652378762,0.013242854982688889,-0.0023419311873279914,-0.013842453673013996,0.02089534039354608,-0.012733607150070929,0.025488075490482986,0.009856207082458556,-0.09989057096478951,-0.004710961672725263,-0.4618243464106799,0.0345080967298782,0.08864704507221724,0.007255493021803029,0.03667382719712532,0.00577004871035667,-0.016217796692684503,-0.006475515081179919,0.008405413330936343,-0.009100615931165987,0.005655308943813365,0.004500688347132718,0.004500688347132718,-0.003042010715162756,0.004895514757443337,0.004933748369990999,0.0021425872525591434,0.005359478052150556,0.0007645012604017245,-0.0028364158302226906,-0.004371185115153877,0.04566927123853634,,-0.003479956735874522,,0.0027735809455982983,-0.00021102859650692666,-0.004079439145703125,-0.004510456557933731,-0.0016175645242011171,-3.492463149068459e-06,-0.0014216534063352534,-0.005051021890101286,-0.004831958725356741,-0.00464136847742083,-0.005603346468648251,0.0012468885235233395,-0.002001075919348795,-0.003802714880937697,-1.3276883988423243e-05,-0.0032529854573697284,0.0030623576282113006,-0.0020747367544556674,-0.004023720175632577,-0.0033081849003181556,-0.011954638496239754
policy_code,,,,,,,,,,,,,,,,,,,,,,,,,,,,,,,,,,,,,,,,,,,,,,,,,,,,,,,,,,,,,,,,,,,,,,,,,,,,,,,,,,,,,,,,,,,,,,,,,,,,,,,,,,,,,,,,,,,,,,,,,,,,,,,,
annual_inc_joint,0.055732174127762886,,0.12074003970962714,0.12074056059722002,0.1207856285642901,-0.03299802301540668,0.10596583190054511,0.07252073657398093,0.013861833252844024,0.010263075386069171,0.05296252385617544,0.05296663357964665,-0.009706342876105578,-0.009501157684742498,0.0019441556949814714,0.042203379347661545,-0.016013164715675657,0.07329483217100345,0.0036306674973809044,0.047169286780121174,0.1400051854984546,0.14002604670304813,0.014651412067205702,0.014674734741610958,0.013092045614569102,0.01550636065591528,0.009959535813670503,-0.007280082619292472,-0.006950126969405515,0.010737655644310989,0.029749099053932766,0.024761903539439228,-0.006241033364814301,-0.0015047592084327878,,1.0,-0.15611126454692173,-0.0016335586917439943,-0.005848391482511158,0.13270998134858247,0.008197727936699812,0.03703829383521341,0.03537976585002167,0.02953158264160291,-0.0021764879249546116,0.08421339722760725,-0.014966779351154678,-0.0058781713834124075,-0.0069503562742948555,0.07887244053746893,-0.004033631384793528,0.08648104654551107,0.030741580711024702,0.03644603048572467,0.02256194061529317,0.007371538696982062,0.10194456080223245,0.05646496088630885,-0.008546430653081591,-0.0005070029757746453,-0.0002359283088682856,0.03173908760443744,0.04779243841022778,0.01589486901664563,-0.0014869360783231443,0.06276716505431586,0.016058439418217513,-0.008456371073268885,0.0037207593004177308,-0.00423593095654401,-0.00622690884304156,0.0190400529923645,0.01426345922215678,0.026491854935569735,0.02700607938483446,0.028740401771330578,0.023330515231883075,0.027374027803067354,0.015831038561046562,0.04264727884320448,-0.0009859908638660396,-0.0003582041746768414,-0.00020807858818248882,0.007973831603939184,0.002542078934576127,-0.00903929778219113,-0.019745051093705324,-0.003067743561276059,0.13786381790775568,0.09360114952554395,0.07959678400637014,0.0896030845076251,0.5332999632808871,0.12269382674183779,0.12269382674183779,0.12256954196893538,0.27784074806808606,0.2803480954511953,-0.0022573218131853087,0.18683152348779078,0.24264897245507402,0.010216770261132942,-0.006252363669518775,0.026149846341662897,,0.004980613463879085,,-0.000509734382465867,0.005483680533663836,0.007714097315206689,0.004381994298239791,-0.002659786404805355,-0.0036036397191815134,0.0004634383137792531,-0.007871995901999978,-0.0077115556832226765,-0.006603750119304119,-0.009428099050950307,0.008097741473321084,0.004478702186731729,-0.007260190944602419,-0.0029251747960457072,-0.004747629475512835,0.002759569548970041,-0.0031874814721146454,-0.005170867431806839,-0.008713144838634045,-0.018517641667282043
dti_joint,0.012029748079132587,,0.017864119192033893,0.017881639331764808,0.017888330517743016,0.05770040444890956,0.023273507708873122,-0.017854893995955672,0.18006592110610112,-0.007387157157417175,-0.01776206899865316,-0.017764169893281355,0.0039797810733905,0.004121263722209783,0.010159887836946331,0.05774238938276662,-0.004172150978582095,0.04032067709113957,0.04224462260365358,0.04662464466362304,0.030400815284428295,0.030397528877833757,-0.0077113822022247345,-0.007707602633148693,-0.015485423773771628,0.018471801127389383,-0.0010082104156733907,0.0041536822174546685,0.0037184078792667635,-0.009199191719276995,-0.014303932821684661,-0.008789290446631421,-0.00013689101185594747,0.0037872259232474012,,-0.15611126454692173,1.0,-0.0004575876113828691,0.002714409391842961,0.0076344109802187485,0.011706441254152869,0.06160617804682518,0.043325824981110136,0.06359396158360447,-0.046190055228905895,0.07506112907002777,-0.009369747803974511,-0.002874526312824112,0.0027182584820318366,0.03162241225494578,0.04874948919986152,0.025480918807569045,0.030708054405932633,0.052597678131823825,0.014691023533902411,0.02384162249783192,-0.02515906967030726,-0.008659233771110034,0.0386505715100141,0.0006922177713283887,-0.0007146536819993643,0.019282860157340837,0.014458458962658455,-0.007393021088741491,-0.01655651695134911,0.00029038958204474346,-0.003770486093165766,0.0001684933083955297,0.0022280895699815163,-0.0008258839140577899,-0.0058012054885941446,0.04326288845634001,0.05197598538234391,0.030262985889536395,0.020630307714164096,0.04814163790193188,0.03756473070348767,0.02539022436227845,0.05375296288218755,0.05792799604611322,-0.000362373950600451,-0.0012946572762088117,-0.0021733777799519617,0.012353131607448702,0.02337574755858326,0.03369624547074115,-0.004484713685159411,-0.0019834672054559912,0.011919905881939861,0.07177221025090567,0.017744899467799953,0.08074796655505438,0.3753765715357664,0.01315421940901746,0.01315421940901746,0.0738733737354695,0.03430821455571013,0.3067593052168828,0.15611704666269505,0.22808907617605215,0.20344702333109319,0.010568531969057706,0.005162714074219575,0.020349059925565568,,0.006646936960289902,,-0.0015134717333546788,0.0014243101244080176,0.0029488784960452997,0.0011639709642369451,0.0018139160692511008,0.003925320195623017,-0.00031978709955669755,-0.0016006873059174992,-0.0015680634803016285,-0.0013428029078032947,-0.0019171044621551733,0.003129189676271364,-0.0009751223442648021,-0.001476283223243329,-0.0005948034300207014,-0.0009653803596011745,0.0005611293503989325,-0.0006481407248907749,-0.0010514413322510762,-0.0017717260668643708,0.010264966006806755
acc_now_delinq,-0.02358829205254114,,-0.0014732830472818873,-0.0014725967392271182,-0.0015055296535688943,0.01691041778123378,0.00017168434680751577,0.011804379278395416,-0.0008000081104911535,0.10807710445305993,-0.03793331718906401,-0.0379325604105052,0.00011887384636805101,-0.12356650806454923,-0.006613742579462185,0.01432701793400985,-0.002508992224170468,5.147068315152867e-05,-0.023828120381085602,0.023941308978626206,-0.02055818304756351,-0.020562654063701058,0.01628171145107517,0.01625164714125125,0.012395254943337649,0.01878641188653666,0.006334281239006263,0.009815918567983875,0.008888423212471136,0.0042541931785759135,-0.00978613946595481,-0.005632752931084196,0.005238208627501144,-0.07767769859156069,,-0.0016335586917439943,-0.0004575876113828691,1.0,-0.0010811555122113442,0.022029639590745546,-0.004665532512937812,0.0008009716502531308,-0.009838795170085395,-0.006489715912890642,-0.0005769708744193517,0.0015854063569565057,-0.005311025581840563,-0.006145560302178436,-0.008360385385307912,-0.0036013836032424552,-0.009500003607937272,0.0086023832668588,-0.009079946042449865,-0.003837135421203598,-0.007792866090473722,-0.004621943484046993,0.015142899912703551,0.011387071167479982,-0.018846140109964642,0.04429570415765538,0.16219411196681907,0.015610248740536266,0.026713750756186767,0.001533326894109163,0.002399995028997936,0.02743910017795334,0.007424744947502955,-0.07066598484585103,0.0010462216900948393,-0.09120743334724184,0.015171909797223545,-0.009227705910260908,-0.002428625528896862,-0.004814891405052604,0.012174739692807886,0.007577813138873245,0.010210400898300127,0.02135200443891657,-0.0019267067842363328,0.0055992403858688535,0.39503267522649743,0.803492540749377,0.05405403127389476,-0.008474348496099238,-0.03760092862086594,-0.017159124737566315,-0.009779032008047037,0.0030074058391745973,0.025412879780816557,0.008363999314943594,0.004581718906006187,0.01336410871043935,-0.0036312101579893488,-0.002087050451078292,-0.002087050451078292,-0.0069325095247443165,-0.002656518235352169,-0.0024898541875682714,0.00029037690749512854,-0.0021662641011067868,-0.0015364640412617672,-0.001293869740908676,-0.0009792238931489912,0.0024519330166403834,,-0.0017010103838517904,,-0.006300383874768911,-0.0017483843280114918,-0.003137939757438945,0.004389398380543487,0.002251105646581006,-0.0021775495224406437,0.004605530978840923,-0.00557597667459178,-0.005701399131079312,-0.004103977788941617,-0.002361820580283503,0.0033327428892355225,0.0002446395013525987,-0.003974327278807648,-0.0036713395826934968,-0.0006574752801149501,-0.0015397831962346066,-0.004000556449992763,0.00045595311913102714,-0.003365679409760547,0.0044668015182409955
tot_coll_amt,0.004881850049306438,,-0.01548466160142803,-0.015483535920233065,-0.015493668006031275,0.008487811200134227,-0.01114436380374219,-0.00127281751977168,0.004330018070706357,0.0022607175653800455,-0.06742608499145411,-0.06742467967581131,0.01911767923221248,0.02780588193835216,-0.019251996858175933,0.01082497552432237,0.025428590646145832,-0.024744369832063896,-0.03219682175617431,0.02319529601210003,-0.009569080129075617,-0.00957027384858416,-0.008084420619646255,-0.008091793396748197,-0.0068369690303842585,-0.0075776284497062075,-0.002533919441301963,-0.003591982994696925,-0.0029664939773611254,0.0023154791767187465,-0.0166375989838138,-0.010303469434936431,0.046969000234147094,0.017186581542066977,,-0.005848391482511158,0.002714409391842961,-0.0010811555122113442,1.0,-0.01125786868260105,0.010932542333178941,-0.0018879236719300798,0.003594175182607063,0.007589524776285654,0.0012989883014878965,0.0032499327916173356,0.007729138443891929,0.018835963726816278,0.024760923991510298,-0.02169547060003213,-0.005987418752173146,-0.022934255542350238,0.01914329452299893,-0.0005047728273379741,0.020905053175411005,0.02707646870588478,-0.012115416442428516,-0.01423187244705748,-0.02616741073942773,0.01218176602922441,0.004116017423118021,0.01153507876939989,0.023835123542093568,-0.01638285518903685,-0.013875187059234127,0.005570819519838536,-0.0024241081132238794,0.04310740816294268,-0.01782620309588754,0.04341277339753218,0.0962436809770081,-0.008575881688165716,0.0031903991715680835,-0.006245070593939205,0.01810817173478151,0.002350535531624698,0.015218498647030907,0.03023295937569072,0.004025451464618192,0.011067222926502335,-0.0009148425278821347,-0.0007735454461684986,0.00825818413178806,0.022555788709492142,-0.048182164390041235,-0.0280126246741727,-0.0005366720389728372,0.01772840882987573,-0.010117181691089728,-0.01165106797793109,-0.03017425308247097,-0.0014424703587518884,-0.010383860223602855,-0.01647700048058593,-0.01647700048058593,-0.004718673243662448,-0.009870844049010077,-0.005394329026782352,0.0003509458889204018,-0.003443538119354058,-0.006138243954782647,0.002243736607050673,0.014971547445280554,-0.012208145568788135,,-0.001985894620360834,,0.0006369979245951035,-0.001820583232651773,-0.0017187038045281247,-0.0006849681569852555,-0.0014031119590906548,-0.00105107130547211,0.0015663983939166756,-0.004659904945291069,-0.004468253928258218,-0.003531791226520571,-0.009065847056676613,-0.001575643385649228,-0.0026163258769807346,-0.007083764993022321,0.0030556170236144186,-0.004552072762486761,0.006094251802998159,0.005279962380660066,-0.004538024900703013,-0.009184627761733942,-0.0007053464193329074
